/* XPM */
static char *c7b91bdc823c46c28f4ae5e0dc6a298d9wTTqIfwvmjE9y5T[] = {
/* columns rows colors chars-per-pixel */
"64 64 243 2 ",
"   c #503E25",
".  c #6A4917",
"X  c #49483D",
"o  c #5B533D",
"O  c #574A3A",
"+  c #795A2A",
"@  c #6A593C",
"#  c #775A3B",
"$  c #704A2C",
"%  c #7A6539",
"&  c #766330",
"*  c #5F450C",
"=  c #4A4B45",
"-  c #524E43",
";  c #544D49",
":  c #56524A",
">  c #5B554A",
",  c #5D5A4E",
"<  c #585345",
"1  c #5E5A53",
"2  c #595B59",
"3  c #4D5552",
"4  c #655A48",
"5  c #635D53",
"6  c #675E59",
"7  c #745943",
"8  c #5E6159",
"9  c #6A624C",
"0  c #776748",
"q  c #656255",
"w  c #6A6455",
"e  c #65635A",
"r  c #6B665B",
"t  c #6C695C",
"y  c #6B6A56",
"u  c #726B5D",
"i  c #786B56",
"p  c #79735B",
"a  c #6E715E",
"s  c #555F61",
"d  c #5B6465",
"f  c #656662",
"g  c #6E6C63",
"h  c #6C6E6A",
"j  c #666967",
"k  c #726D63",
"l  c #7A6E63",
"z  c #736B67",
"x  c #6C7168",
"c  c #757265",
"v  c #7A7365",
"b  c #75736A",
"n  c #7B756B",
"m  c #7D7A6D",
"M  c #7D7A67",
"N  c #6B7375",
"B  c #7A7571",
"V  c #7D7B73",
"C  c #7C7E7A",
"Z  c #737776",
"A  c #646F71",
"S  c #95441C",
"D  c #B9581C",
"F  c #B14E14",
"G  c #89691B",
"H  c #A47A18",
"J  c #975E3B",
"K  c #8A4F2D",
"L  c #B95A26",
"P  c #AA542B",
"I  c #836734",
"U  c #93722F",
"Y  c #A87A27",
"T  c #A77B34",
"R  c #B47F34",
"E  c #B7702F",
"W  c #C85A18",
"Q  c #D55D1C",
"!  c #D0621D",
"~  c #CA5C27",
"^  c #D35D20",
"/  c #C76322",
"(  c #D0642D",
")  c #945B42",
"_  c #886248",
"`  c #866D59",
"'  c #867659",
"]  c #967857",
"[  c #8D794B",
"{  c #847C65",
"}  c #827B6D",
"|  c #867868",
" . c #947D67",
".. c #837D73",
"X. c #847D79",
"o. c #857A72",
"O. c #826F68",
"+. c #BA6641",
"@. c #7E8178",
"#. c #B7871C",
"$. c #AE802A",
"%. c #B2832C",
"&. c #AA853B",
"*. c #B48537",
"=. c #BD922C",
"-. c #9B8039",
";. c #D89A06",
":. c #DBA40E",
">. c #E5A61A",
",. c #EBB818",
"<. c #F5B91C",
"1. c #E2A40B",
"2. c #D19931",
"3. c #DCA629",
"4. c #D6A83A",
"5. c #DBB03D",
"6. c #E2A52C",
"7. c #E6A92A",
"8. c #ECB828",
"9. c #F2BA23",
"0. c #F7B929",
"q. c #E6A735",
"w. c #F8BA35",
"e. c #EFB02E",
"r. c #E29B22",
"t. c #F4C21E",
"y. c #F7C229",
"u. c #F5C232",
"i. c #8D825B",
"p. c #96875B",
"a. c #9B925E",
"s. c #988847",
"d. c #AA8746",
"f. c #A3885E",
"g. c #AD9658",
"h. c #8C8469",
"j. c #978969",
"k. c #9B9269",
"l. c #858175",
"z. c #8A8375",
"x. c #85847A",
"c. c #8B857A",
"v. c #8D8A7D",
"b. c #898977",
"n. c #948472",
"m. c #938C74",
"M. c #9B8D75",
"N. c #938C7D",
"B. c #9A8D7C",
"V. c #94867B",
"C. c #9C9374",
"Z. c #94917D",
"A. c #9B937D",
"S. c #979276",
"D. c #8D907D",
"F. c #A38C6C",
"G. c #A38965",
"H. c #A68A73",
"J. c #A5967A",
"K. c #A99368",
"L. c #D9AC47",
"P. c #DBB34A",
"I. c #E8BA4D",
"U. c #C6A65A",
"Y. c #F3C442",
"T. c #7A7F82",
"R. c #798181",
"E. c #8D8C82",
"W. c #868A87",
"Q. c #928D82",
"!. c #9A8D84",
"~. c #958C87",
"^. c #8C918A",
"/. c #959284",
"(. c #9A9384",
"). c #9D9A85",
"_. c #95938A",
"`. c #9B958A",
"'. c #9D998C",
"]. c #979984",
"[. c #9D9C93",
"{. c #969997",
"}. c #8B9496",
"|. c #A38E88",
" X c #A19B84",
".X c #A2958B",
"XX c #A29B8C",
"oX c #A69785",
"OX c #A39D92",
"+X c #A89C94",
"@X c #9EA29B",
"#X c #A5A194",
"$X c #AAA395",
"%X c #A4A49B",
"&X c #AAA59B",
"*X c #ACA99D",
"=X c #B2AA9A",
"-X c #ADA48E",
";X c #939DA1",
":X c #9DA7A8",
">X c #9FADB0",
",X c #ACABA3",
"<X c #A5ABAA",
"1X c #B3ADA2",
"2X c #AEB2AC",
"3X c #B9B4A8",
"4X c #AEB9BC",
"5X c #A9B3B6",
"6X c #B3BCBC",
"7X c #B6B9B4",
"8X c #A6AEB2",
"9X c #C2BCB0",
"0X c #BCC2BE",
"qX c #C3C3BD",
"wX c #B5BEC2",
"eX c #AEBBC3",
"rX c #B5C1C5",
"tX c #BBC3C4",
"yX c #BAC5CB",
"uX c #BFCAD1",
"iX c #C2CBCB",
"pX c #CACBC5",
"aX c #D2D3CD",
"sX c #C3CED3",
"dX c #CACFD3",
"fX c #CBD3D4",
"gX c #CBD5DA",
"hX c #CCDADC",
"jX c #C8D4D6",
"kX c #D3DBDC",
"lX c #D9DFDC",
"zX c #D4D8D5",
"xX c #CED4CA",
"cX c #DDE2DE",
"vX c #D7E0DD",
"bX c #CEDAE1",
"nX c #D3DDE3",
"mX c #D6DFE5",
"MX c #DBE3E4",
"NX c #D7E4E6",
"BX c #E5E9E7",
"VX c #EDF2EE",
"CX c #E1E4DB",
/* pixels */
"OX&X/./.[.E.l.v.c.v.'.'./.'.&X5 r ..} ).-X X`.XX'.(.'.(.E./.~.: g `.[.'._.`./.'.)./././.`.`.OX5 O.$X/.p + [ 7 p i @ [ % h.'.!..X",
"`./.`.v.n r k k n t r c.`.`.'.c 5 c.M M N.).Q.Q.Q.Q.N./.v.x.V > g './.l.v./.v.`.`.N.v.v.v._.E.< 5 V.#Xi + d.+ & + I T I i `.'.~.",
"l.`.Q.5 q c.v.v.m ..Q.r m '.'.5 = : ; , > 5 g 1 1 > - < < = : = = X - , < < > < > , > < > < X - - t q 0 &.2.L.5.5.P.2.T @ e e 1 ",
"Q.'.5 n v.c n x.c.V g V n Q.#Xe g V k r e k B b h B n t t g n 1 q n c r r t k k k b b g e g n r g x.V % Y q.w.>.:.e.q.Y 0 t V V ",
"'.c.b m ..x.c.x.V V Q.m c b '.r e g b b.m g r z c.c v M { y m t w u k ..x.k r r V V z B c.z n b q a g ' *.2.e.9.0.e.2.R J.x.m b.",
"`.m l.V ....Q.b c E.c c...n '.t g b m M q n x.V V m m u p p z.4 M M m v v ..v.k b b B n b k c.q t m x.` T q.>.1.;.7.q.T  .x.V b.",
"'.m l.k m v.l.Q.V l.c.V ..c Q.t t M c c M V n X.B B o.} } n b > 9 | | p } l b X.X.X.k b X.n b 5 , x.b i R q.u.:.,.0.q.T ` V B V ",
"/.Q...v.l.V k v._.V n x.m n `.t - > q t t t 1 ; : 6 > 9 9 9 4 o o 9 9 4 w u r ; ; e g r r t e > 1 5 r @ Y 3.,.y.y.u.6.H @ r f ; ",
"'...l.n OX....x.b Q.~.E.o.m '.c {.x.v.OX`.XX*X< n =XJ.j.a.a.p.k.C.j.z.m.(.XX+Xk r _.v.Q.Q.`././././.Z.i.Y 6.8.;.>.>.q.Y j.Z./.m ",
"`.z...n l.c _.v.....Q.k Q.x.(.k E.~.E.`.`./.'.u }  Xk.a.p.s.s.a.k.h.m. X(.N.OXn k /.v.v.`.(.v.m /././.p.$.6.7.;.;.>.q.$.j././.m ",
"N.).c.v l.m z.u v.} N.Q.x.'.`.r Q.Q.Q.(.(.(.+Xn z.B.m.C.j.i.k.C.S.m.A.(.A./.$Xn r `.`././.N.(././././.F.*.q.w.<.,.w.6.*.F.'.Q.r ",
"(.XX(.m n m m N.....m v.`.#XOXk /.Q./.Z.V./.OXr x.(.(.A.j.j.J.C.A.(.Z.m.A.N.`.u u Q.Q./.(./.'.XX).Q.(.F.R q.w.9.,.w.q.*.F.`.Q.u ",
"(.N.).XXz.v k n } c.c.`.(.XX`.n /.).(.Z.(.(.'.b z.`.(.m.m.h.M.m.A.N.(.XX#XXX&X} 4 z.N.`.N.l.c.N.A.N.(.F.R 6.9.,.,.0.q.R F.!.(.p ",
"N.(.z.).'.'.XX(.`.~.OXOXQ.OX(.v './.Z./././.`.k v.'.(.Z.A.m.(.`.XX/.#X=X*X=X3Xn , m n Q.v.c.z.z.(. X`.F.%.6.9.<.t.9.6.%.F.`.!.i ",
"} XXN.m./.(.`.(.`.Q.} w (.`.Q.k [._._././.'._.6 E.Q.E.v./.v._.Q.Q._.`.c.v./.`.> < n m l.b c ..c.N._.Q.] Y 6.9.,.,.,.7.%.' c.c.g ",
"4 4 y i y y 4 < 5 v , r k v c X 1 X.l.c b./.x.1 g b k k b k b 6 e V k 1 k k n w 5 n u r r r k 5 , k c 0 H 6.9.,.t.8.3.Y # n g X ",
"h.' h.j.i.h.{ o /.'.#XOX'.XXXXt ..,X/.c.'.OX_.OX[.[.OXOX#X'.,Xr l.&X`.%X'.OX'.XX#XXXc.m OX#X1Xc b 1X+XK.%.3.u.t.,.8.3.$.f.(.*Xj ",
"J.C.k.k.k.k.m.i XX/./.`.Q.N.).v _.k < q r k n r 1 k c r r q c...Q.r , k t k r k r r v 5 w r m b.v.'.|.f.%.3.0.,.9.u.3.$.G.B.OXb.",
"S.A.C.i.k.C.S.y z.v.Q.v.l.v.XXc '.t t t g k e m Q.b k ..l.b c...l.t m l.l.l...c ..l.l.c.c...l.Q.z.).`.G.Y 6.9.<.<.9.6.$.F.!.(.} ",
"(.A.A.m.S.m.S.{ ).v.c._././.).w v.x.l.m v.`.&X/.Q.E.m k m l.c.n v.l...l.l.l.'.3Xl...n m ....v.z.z.XX~.j.Y 6.9.<.<.9.7.*.F.!.).} ",
"`./.N.N.m.). X} .XQ.Q.Q.Q.Q./.q /.....k ..v.l.l.l.n l...u n `...E.b.b g k Q.OX*X3X`.#Xl.} ....c z.(.`.F.*.3.Y.8.8.u.6.R F.!.(.h.",
"x.E._.`.N.Z.N.M !.XX'.Q.Q././., E.l.b E.`.n V v.l.c m Q.Q.v ....`.n l.`./.3XQ.Q.3XOX1XXXXX..c.c m v.Q.M.*.4.I.H #.I.q.R H..X/.c ",
"6X<XW.W.OX/.M q XX!.c.Q.`.v.l.< /.c c.Q.l.Q...k m n l.z.m k Q.n Q.m E.OX`.3XN.N.3X1X3X1X1Xn Q.x.V ^.x.j.&.L.g.. . d.L.*.j.!.v.k ",
"mXBX5X2 e r w < 5 u u t t q t X /.m m ..l.c.c c.m Q.N.....k /.l.Q.m l.1X3X#Xm OX3X1X3X1X9Xc...l.X t b i s.U % 0 i + U T i n g X ",
"mXmXMX^._.%X#XQ...XX&XXX'.'.#Xq Q.n ..m c...v.c./.c.v Q.N.t `...Q.l.k c.Q.v.n 1X3X1X1X3X1X....l.w =X$X-X' i.oXoXoXJ.i.' A.Z.#X} ",
"wX5XkX<X@.W./.(.l.v.N.N.(.v./.c c...q l.m v.l./.....N.c.m k /...l.l.m g /.v.&X9XOX*XN.1X#Xw c.l.u XXm. XN.(.N.N.).(.(.N.B.(.(.N.",
"4XyXfX<XpX2XE././.`.(.N.'.)./.q /...k k `.v.v...N.N.v '.n c.z.m Q.l.l.M m n XX9Xl./.r XXOXk /.} y B.| n.m. X/.`.Q.Q.(.(.!..X!._.",
"5XwX6XfXlXzXaX_.Q.`.'././././.q Q.l.m q m ..(.(.c.n '...} } Q.m c.l...l.....n 9Xr n k z.z.v Q.N.w  . . .p m.(./._._.Q.(.!.!.`.{.",
"kXiXkX5XtXfXcXaX_.x.v././././.q l...v.c.m } c k } (.m c c.b o.v /.m l.l.o.m u } } k v k } l.v.z.i M. .j.| n.).D.D./.Q.N.!..X_.Z ",
"kXNX4X6XgXkXzXiXpX7X,X_.l.`.'.5 Q.m m ..n c u r n w n c.v v N.m ..M b ..m m c.n c...c.....n v.z.w M. . .n. .Z.]./.b._._.Q...h j ",
"iX4XW.W.rX5X{.C Z _.[.E.n v.c.> E.`.l.`.N.`.OX#X#X`.(.OX(.`.&Xr n OXx.v.OX/./.XX/./.Q.(.`.Q.`.} 4 h.j.h.M.V.N./.Q.Q.E.~.,XxXyX:X",
"W.h 8 2 f f 2 > r q q g z g 5 > r z.r c n v } w u r c M M p i o o t m M O.M n 4 i | l n c n } < O w { p O.o.v , g b C fXcXzXNXNX",
"B.(.h.{ ' O.l o % G.` '././.&XXX(.).XX(.Q.~..Xr z.XXS.J.k.p.[ i.k. X{ 4 ` i v O 7 _ i Q.XX#X=Xp v $X XN.).(.'.b ^.W.<XBX5X>XrXgX",
"$X-X' p.& * I . G T # n./.E.N.B.(.N.N.`.`.'.OXn V.(.S.J.i.a.g.a.C.S.' $ $ K # $ K $ @ } ~.!.(.n.v .XQ.Q./.Q./.V Z W.wXnX5XgX>XjX",
"=XoXF.d.P.L.4.4.L.%.p.A.Z.).!.!.A.N.N.`.v.c.x.r z.XXm.j.i.p.a.k././.H.$ P L +.P E S ` `._./.(.(.n Q.Q._./.E._.{.;XBX5XgXbXhX8XgX",
"].S.p.d.4.w.e.e.6.2.]  X'.b.`.!.(.(.N.b...v._.c ..'.N.m.C.C.k.C./.'.H.J F ~ ( ~ ~ S ] XXv././.z.v.`.`.E.c.E.7XcXmXgXsX8X5X>XrXNX",
"Z.A.f.*.w.1.e.7.>.2.f.(.Q.X.~.`.N.N.v.l.v.`.[.c l.Q.N.).M.M.C.m.!.B.H.J ~ F D F W P ] !.~.(./.b.v.Q.W./.*XxXlXlXmXwXyXhXsXhXNXgX",
"N.J.f.*.w.0.;.>.w.#.K.V.X.[.!.!.N.N./.v.`./._.t l./.N.N.B.B.(.B.!.|.H.J D ^ F F ~ P ] .X(.(./.m V V x.2X,X,X[.5XfXkXtXgXNXsX6XkX",
"n | p.&.e.0.u.0.<.2.] v.+X*XXXZ.v./.`././././.b k Q.x.} Q.(.(.`.`..XJ.K L ^ ~ / / F ] (.Q.~._.B V E.x.V g V V j W.:XT.<X5X:XW.<X",
"4 i 0 &.e.1.;.1.0.2.] X.o...{ a t ..c.Q.Q.v.m - , c v u u l O.w 5 k 0 K L F F F / F _ c n } z f g n c.V E.x.W.f = f h d d = = = ",
"+X=XF.d.w.<.1.<.9.2.K.OX'.(.).).#X`.~.OXXXOX=Xv z.`.o.z.B.N.+Xr c.XXJ.J D ! F W / P ] -X+X`.[.{._./.`.Q.`.Q.%XV g ,X'.E.x.@.C = ",
"1XB.p.&.w.0.<.,.0.=.% 5 g k y y q b 6 5 k r v.z.V.(.!.} z.(..Xz.(.B.H.J D Q W W W P # i l l f f g n t q r r E.c.x.*X/.v.v.c.W.k ",
"OXm.K.&.q.0.<.0.u.=.] z.} m l...x.X.x.m o.n z.z.z.(.(.B.(.(. X| V.oXF.K L W Q W ( S _  .| O...l...n z.z.} o...l.m N.z.z.c.c.z.m ",
"m  Xi.-.I.w.<.0.e.U.[ k N.E.} x.X.X.V ..N.c } 5 z.(.V.B.(.N.XXv } .XH.K L ^ Q W ( P _ ` V.z.@.m v.N.m } x.o.v.N.w z.z.m.z.z.c.} ",
"V /.m.& 4.0.y.u.I.G @ V.z.M ..X.c.t c.c.n l.Q.k ..z.(.).Q.(.XXc W.E.B.) S ~ Q ^ L K 7 { c.n g @.l.c Q.c.m ..Q.c.q z.} z.z.z.(.X.",
"B Q.(.a.G 4.Y.I.U % ' v.} ..Q.X.b x.V ..l.V Q.m z.N.z.N.N.N.#Xk @.[.(. .) P L L K _ | N.n x.W.x.b l.l.....b Q.v.u m.} N.V.V..XV.",
"z ..z.h.i.I U.I [ h.} m c.c.V V n l.l.v.x.v.Q.n b Q.c._.OX`.+Xq q )./.(.M.7 J + ` n.| V./.E.x.x.b m ..x.x.l.Q.N.i h.h.m.z.z.V.} ",
"6 r q , 9 < 7   B.z...V X.X.V c @.v.b b.V V v.k X r c r n ..k > < q b 8 r w 7   c.l.m m c.n c.b n /.n x.c.n o.v.O w i i 4 4 4 O ",
"`.(.z.> k (.$Xl N.c...l.V b b x.b c x.c v.m Q.k c.*X#XOX*X`.~.+XXXN.'._././.$Xt c.c.l.m m ..c l.n n ..n x.n x.o.r (.A.M.` ' ] ' ",
"N.Q.~.z.l.Q.~.v /.n ..v.x.V E.x.x.V l.l.l.n c.c m '.*X=X1X$X`.v.Q.OX`.v.`./.`...E.l.l.m v.m z.N.c.c n l.E.l.v.o.l (.m.n.oXk.j.F.",
"Q./.Q.N...Q.Q.u Q.l.} v.z.v...n ..x.x.l.m ..N.} w v.XXXX`.Q.(.(.(.N.N.'.Q.N.`.c v.c.....c.n c.l.Q...l./.m o.c.b 6 B.B.n.M.M.j.F.",
"N.v.v.N.m c.Q.c Q.l...n l.m c.c.x.....b l.c./.u } ).N.z.(.(.N.Q.N././.(.N.(.'.t c...v.n Q.n Q.....c.n m x.v.....5 Q.B.M. .M.M.J.",
"Q./._./.E././.q c.l.l.c.u } z...b m E...z.k v.n t /.(.v.N.N.N./././././.N.c.(.u V.c.X.c.o.X.X.x.v.m m x.z...z.} u Q.N.V.).N.N.(.",
"x.V l.v._.E._.t /.v c } z.v v M o...x.x.c.x.c.t } c./.`./.v././.E.l.x.Q.Q.c.(.u V.....o.o.z b V b n z.l.z.} x.} w Q.~.(./.Q.Q.l.",
"%XpXpX@Xx.x.E., x.`.n 5 m OX(.z.Q.'.'.!.v.Q.Q.t x.Q._._.v.x.E.x.W.<X%XW.x.Q.N.r z.!.z.~.Q.Q.Q.Q.Q.b./.Q.c.N.Q.w ..*XW.W.C ^.E.j ",
"cXlXlXMX7Xj e 8 e q 1 > q u c k r k v b v k n 5 e x.C C <XaX0X^.zXvXkX0Xb e b , r z.m m x...x.k c m m c m c u 5 %X,Xf h 7XkXMXiX",
"kX5X6XtXkXW.{.{._._._.`.#X/.Q.< r v.v.Q.E.E._._._.{.Z 8XMXtXNXgXtXkXzXMX<XV _.`.Q.l.b.N.N./._.q t #X#X`.`.'.&XpXaXpX2XiXlX6X5XnX",
"uX4XiX8XNX6X^.@.W.E._.E.W.x.#Xn m `.v.c.W._.E.V R.{.{.iXgXrXyXnXbXsXwXkXtX{.{.V /./.c.l.z.l./.} Q.3X/.`.'.v.%XqXqXpX7XzXjXrXyXrX",
"rX8XNXhXjX5XkX{.@.W.^.^._.E._.t n v.x././.V W.<XiXgXmXyXuXyXsXnXnXrXbXhXyXiXMX@X@.V Q.D.v././.b c.&XE.x./.E.x.x.qXVXtXwXkXnXuXrX",
"nX4X5XrX5XiXMXzXzX2XC x._.E.W.n M v.E.x.b @XzXkXtXwXyXbXyXjXjXgXnXrXwXrX8XkXkXkX@X7X[.x.v.b.N.a l._././.x.%XqX,XcXlXzXsX4X>XrXnX",
"hXnXgXyXgXrXtXkXMXcXpX_.x.Q.`.e c v.@.`.pXBXcXfX<XgXrXjXNXgX5XeXgXgXgXtXNXiX4XfXvXBXCX%Xx././.c l.Q.Q.E.,XBXcXMXkXwXiXkXgXgXNXhX",
"gXrXNXNXyXiXfXkX2X_.7XqX,Xg ..k n ..@.,X7X[.%XfXMXdX5XsXNX4XsXhXgXsXgXNXjX6XgXNX0X^.[.7X_.m (.w } `.n [.7X{.{.tXkXzX4XkXNXjXrXhX",
";X}.>XwX:XR.<X^.C x V B x.x._.e k _...b h f j W.{.}.Z }.{.8XiXjX6XW.<X5X{.N ;XW.C h h h V v.c.r x.`.E.V h Z Z N W.{.R.W.}.:X5XiX",
"2 s s d 2 j 2 8 Z C b n ....r - g n X.W.g e N Z N h Z A j A Z A 3 2 f 3 d A s A A R.Z b B r 6 - 4 n c.x.C C j N A d A d s d d N "
};
