/* XPM */
static char *b2d032f8ae654f98f686e5060b1cf551n451HRYvLN9X7GeC[] = {
/* columns rows colors chars-per-pixel */
"64 64 214 2 ",
"   c #1D2304",
".  c #1F260C",
"X  c #192A0A",
"o  c #1B2B10",
"O  c #262504",
"+  c #292401",
"@  c #2B2A04",
"#  c #24270D",
"$  c #232B0D",
"%  c #2B2C0D",
"&  c #312807",
"*  c #332C0B",
"=  c #3A2D0B",
"-  c #2B330D",
";  c #26320E",
":  c #34330D",
">  c #3B330F",
",  c #3B3D0E",
"<  c #262E13",
"1  c #2C2E12",
"2  c #262F1A",
"3  c #312E13",
"4  c #392D10",
"5  c #253314",
"6  c #2C3414",
"7  c #2A3816",
"8  c #2B351B",
"9  c #2D3B1B",
"0  c #26391B",
"q  c #343314",
"w  c #3C3413",
"e  c #353A15",
"r  c #3C3914",
"t  c #333619",
"y  c #3B3619",
"u  c #333B1C",
"i  c #3C3C1C",
"p  c #2E3C21",
"a  c #333D22",
"s  c #3B3E23",
"d  c #3A3F28",
"f  c #41350E",
"g  c #423616",
"h  c #423A16",
"j  c #41361A",
"k  c #443C1B",
"l  c #493D1D",
"z  c #493B16",
"x  c #423D21",
"c  c #493E21",
"v  c #3E400F",
"b  c #34421E",
"n  c #3B421D",
"m  c #3D4818",
"M  c #354223",
"N  c #3C4424",
"B  c #3C4A25",
"V  c #364429",
"C  c #3B452A",
"Z  c #3D4B2B",
"A  c #364929",
"S  c #3D5229",
"D  c #3F4731",
"F  c #3E4C31",
"G  c #444514",
"H  c #43421C",
"J  c #4A421E",
"K  c #424A1B",
"L  c #4C4C1D",
"P  c #52451F",
"I  c #50491F",
"U  c #444424",
"Y  c #4C4423",
"T  c #434C24",
"R  c #4C4A25",
"E  c #434729",
"W  c #4B4629",
"Q  c #434C2C",
"!  c #4B4B2B",
"~  c #514524",
"^  c #534A25",
"/  c #594C25",
"(  c #524629",
")  c #544C2B",
"_  c #5A4D2C",
"`  c #44522D",
"'  c #4B522D",
"]  c #4B5A2E",
"[  c #4A552A",
"{  c #555225",
"}  c #5C5225",
"|  c #54522D",
" . c #5B532D",
".. c #53592B",
"X. c #5B5B2D",
"o. c #424730",
"O. c #424E32",
"+. c #4A4E32",
"@. c #474F38",
"#. c #544E31",
"$. c #5A4E31",
"%. c #455333",
"&. c #4B5434",
"*. c #465830",
"=. c #4C5A35",
"-. c #46543A",
";. c #4A563A",
":. c #4D5B3B",
">. c #545333",
",. c #5C5333",
"<. c #535A35",
"1. c #5D5A35",
"2. c #51563A",
"3. c #5D563A",
"4. c #525C3C",
"5. c #5C5B3B",
"6. c #624F2E",
"7. c #62542D",
"8. c #645A2D",
"9. c #625534",
"0. c #6A5736",
"q. c #635A35",
"w. c #695B35",
"e. c #62563A",
"r. c #645C3B",
"t. c #6B5D3B",
"y. c #705D3C",
"u. c #4E603A",
"i. c #5E6136",
"p. c #52613E",
"a. c #5B623D",
"s. c #59683F",
"d. c #636335",
"f. c #6B6237",
"g. c #64623C",
"h. c #6B623D",
"j. c #71633C",
"k. c #77683F",
"l. c #4E5C40",
"z. c #525E41",
"x. c #595E41",
"c. c #5A5F49",
"v. c #645D40",
"b. c #6A5E41",
"n. c #715D42",
"m. c #546242",
"M. c #5B6444",
"N. c #576844",
"B. c #5D6A45",
"V. c #5B6944",
"C. c #56644A",
"Z. c #5B6649",
"A. c #5C6A4B",
"S. c #646343",
"D. c #6E6140",
"F. c #6B6343",
"G. c #636946",
"H. c #6D6845",
"J. c #646649",
"K. c #6C664A",
"L. c #646B4B",
"P. c #6C6B4B",
"I. c #726643",
"U. c #736946",
"Y. c #7A6B44",
"T. c #766749",
"R. c #746C4B",
"E. c #7A6D4B",
"W. c #617047",
"Q. c #617149",
"!. c #64724D",
"~. c #6E724D",
"^. c #74724D",
"/. c #7C724C",
"(. c #7F7B4E",
"). c #626C52",
"_. c #6A6F52",
"`. c #736C50",
"'. c #667452",
"]. c #6A7353",
"[. c #6F7859",
"{. c #6A7A56",
"}. c #747252",
"|. c #7B7451",
" X c #717857",
".X c #7F7B56",
"XX c #717C5E",
"oX c #816F4C",
"OX c #83754F",
"+X c #89774F",
"@X c #847755",
"#X c #867853",
"$X c #8A7F5C",
"%X c #837E58",
"&X c #7C805B",
"*X c #7F8060",
"=X c #8D815D",
"-X c #81835C",
";X c #91835C",
":X c #90895F",
">X c #858465",
",X c #8E8663",
"<X c #8A8A65",
"1X c #8C896A",
"2X c #838963",
"3X c #918662",
"4X c #948A62",
"5X c #908D6C",
"6X c #998C62",
"7X c #8E9069",
"8X c #94936E",
"9X c #9C966D",
"0X c #A0976C",
"qX c #A39F79",
/* pixels */
"B Q.'.Q.V.Q.Q.V.B.B.].a.=.B.].B U @XE.E.E.oXoX~ / Y./././.E.|.g.u {.!.m.V.W.!.s.B.B.L.L.'.A.B.&.q ^.^.h.j.Y.k.I.j.E.I.U.U.I.I.w.",
":.p.*.*.*.=.*.=.=.*.p.=.%.4.A.Q W r._ e.e.6.0.7.7.0. ._  . .r.| B N.*.*.=.*.*.=.=.=.:.&.%.Q =.` &.S.,. .7.8.7.7.9.9.9._ ) ~ / f.",
"B *.` p.p.:.*.=.:.=.:.=.=.:.m.E R r.1.t.t.0.t.y.7.q.t.h.D.e.7.r N 4.%.:.p.=.=.=.4.:.:.=.=.` *.B i #.)  . .8.0.8.q. .e.e.t.9.^ 8.",
"Z 4.4.p.:.=.=.:.p.p.p.:.p.p.z.B U 1.r.q.e.t.t.t.t.t.t.9.9.e.t.Y u :.=.4.a.p.p.4.4.:.4.:.4.%.B t q 3.e.t.0.w.t.0.q.t.D.e.e.9./  .",
"V :.:.:.z.N.N.m.=.:.:.:.m.p.:.B n | 1.h.t.t.e.t.e.e.t.e.t.t.n.) Q :.%.:.4.p.:.:.:.4.m.m.:.%.%.B i e.$.e.t.q. .0.t.D.e.3.q.1. .| ",
"V ;.:.m.M.z.%.%.:.:.:.:.p.=.=.B q Y | r.h.t.q.t.D.9.e.e.b.t.e.) s ;.%.%.&.4.:.:.4.:.:.:.:.%.*.B i v.,.,.h.h.q.t.t.e.) e.h.q.1.R ",
"N &.%.;.:.:.;.4.=.&.=.=.=.%.%.u i ) R ) _ r.t.e.r.,.3.3.r.,.) W 8 %.:.:.=.p.:.=.=.%.=.:.4.%.` N i b.3.,.3.r.1.e.r.,.3.r.1.)  . .",
"1 s 6 6 6 t t q t N Q U T ` ' 6 @ r q h h g w = & q i q y q q 3 < 5 5 M M b 5 7 5 7 M V M 7 9 6 % s i U U H U U l = k Y h k h w ",
"K.J.S.P.}.J.P.U i ' &.' ! ! T | ) r.D.t.R.D.R.W q J.J.J.M.4.M.L.A.L.).A.N.Z.L.M 9 C.A.N.M.4.A.L.L.P.M.%.>.M.M.i * r.R.I.r.I.D.U.",
"W #.,.>.,.,.R.,.k 3.R H R R H R  .( ( ) ) ( P.,.Q P.Q %.%.Q :.Q O.;.Q O.:.=.m.N.V ).m.O.=.&.Q %.&.` =.M :.&.G.5.U }.,._ ) _ $.Y ",
"r.r.r.3.3.Y r.,.,.1.r R J H h h w J J k Y c 3.>.U 4.M m.m.:.N.:.:.z.:.:.N.=.Z :.Z m.6 a M 6 u - - 6 u A u 9 %.4.U H.k e.e.e.r.r.",
"Y Y Y ( D. .r.,.( h.Y  .9. .h.$X=Xh.9.q.,.( v.>.! :.O.m.Z Z A %.Z Z O.Z =.m.=.=.Z Z.V Q 2.<.5.&X2Xa.=.=.=.7 Q a.U r.Y D.$.( c ( ",
"Y _ l & ,.,.r.,.Y 1.~ / l e.=X4X;X;Xh.Y ( ( ,.>.N 4.%.;.0 F Z Z O.Z Z 5 V :.:.4.M Z.u +.! >.>X<X<X7XG.t Q V %.%.U S.( 9.= l ( W ",
"9.h.e.k e._ e.e.~ e.Y J / ^ e.OXOX7./  .~ l 3.5.E z.Z =.A :.C.m.:.z.N.Z 4.=.%.:.C C.a t W W >..X%X,.R >.u u :.E x H.Y t.l ( K.3.",
"J J ,._ F.$.e.,.w ~ ~  .t.z ~ #X#X~ J 9. ._ ,.U i 2.O.A.:.-.Z 9 Z Z m.Q N.%.=.4.M C.s ! S.i Y .X4X) k ! 5.t =.E U F.( I.) Y ( x ",
"I._ _ w l k e.( ( 9.Y _ 3X9.g E.OXf _ =Xe.k W i q E V V 8 %.%.M.'.%.m.M V 7 =.%.N C.u U >Xv.i H.$X> ( 1X4.% 4.U H r.k z w ( #.3.",
"g ( ,.l ( k r.( Y e.l ( ) $X9.E.@X_ $X_ ( k 3.>.N 4.M Z V O.%.7 M A l.Z %.V :.Z M L.6 U +.>XS.H.1XY >X>.U e ' | U 1.H Y l ,.( y ",
"D.F._ Y E.,.$.) ( 3.Y r.) l / _ ( h.g Y U.J ) U i :.M Z.=.Z N.m.m.m.:.Z A.=.:.=.7 m.N G.N t W >.U H.y i 5.Q ! | H 1.Y R.r.) F.r.",
"j l l l  .( 3.l Y ,.Y F.,.) Y g w l _  .R.J J ! W +.a %.9 V Z A M M p 0 :.:.l.%.5 u a M.2.&.E 1 u t +.E M.n T <.| <.Y r.j w Y j ",
"Y e.Y w ( |  .r ) ) * | |.) Y l Y Y ) E.) q S.W N &.O.%.9 ;.:.:.%.:.Z p F -.l.%.8 ;.5 O.).+.6 N N u M N.a.; ` T W ,.W ,.w l ,.e.",
") r.) ) 3.3.1.R Y >.H *  .h.R ,.,.Y F.r.j 4 ) ) N x.C z.O.O.M.O.Z M.%.Z m.m.-.%.p ;.V 6 @._.o.N O.a l.N.u 9 B T ! S.W r.$.Y e.e.",
"U 3.,.>.,.U R R U 5.: r : : w r U y j + j q r.>.N 2.a ;.;.%.4.C V -.:.:.:.Z M p M z.8 8 . 2 N 8 2 p 0 X V 7 B Q U ' U W 3.,.,.( ",
"3.) ) | Y Y S.R H ,.1.R | | r.) W 5.5.S.3.>.S.W N z.z.-.O.%.%.;.:.O.:.:.Z a %.Z 5 Z.;.O.z.:.V V ;.z.%.=.Z 9 =.&.! U 1.( ,.r.,.3.",
"k Y l j Y w r + + r H H H H k U i 3 U q i i U # . a a a V p a a V a M a a 7 M 5 M 9 8 p p 8 8 a d a u C u B n n >.: k Y ) j c j ",
"4 ( _ Y l ,.) |  .H ^ 1.^ | | q # o.Q +.! i t %.&.Z O.F F -.O.5 $ Z %.V B ` ` %.%.Z a F F %.O.8 q +.#.U &.>.<.R Y ^ )  .) R R h ",
"$.T.$._ Y 9.1.R r.g.R | 1.r.H.>.a ).4.4.2.' 4.M.;.l.:.-.l.O.A.F Z L.=.=.` ` ` B p.:.Q =.;.;.z.z.U `.>.W i R 1.R J  .9.Y  .1.H.1.",
"( $.Y e.e.1.1.)  .| Y r. .Y ,.#.d ;.M ;.2.Z %.%.Z :.:.:.;.D :.V M :.9 %.4.m.:.` b %.B m.;.=.O.Q k 3.c r.3.,. .) R  .q. .,.R | 1.",
"( ,.t.J l J 1.r.9.) Y Y J q.r.Y a -.-.O.V Z %.:.Z.:.p p M l.%.Z a ;.:.Q Z M B a.*.p.b ` Q N.;.E j e.t.$.j r Y r.h.h.h h h ,.| 1.",
"/ _ e.^ q.1. .R 1.g.) J ) r.,.#.a -.;.%.C Q =.:.%.:.-.:.F l.%.O.Z ;.;.%.=.*.` :.*.m.Z %.O.:.;.+.x $.$.$.,.1.) 1.) t.~ q.( r.) r.",
"(  .^ q.q.J ^ q.R  .) r.b.W #.! d -.C l.4.Q =.B %.;.A O.-.-.:.a a z.O.z.;.Z B *.M *.:.:.z.V O.Q W 9.c 3.) ( ( q.9._ z e.e.,.Y ,.",
"( g.) |  .R ^ | | | ( ,.3.,.F.s a C.;.;.%.%.a.*.z.z.%.:.z.;.C.C V C.-.l.%.Z :.A.m.%.Z Z :.%.z.@.x r.#.) ) ,.3.,.) e.e.9.,.,.e.3.",
"* H R R 1...{ i.i.<.| H ) U x 1 # V N Q Q Q U U U i s Q U +.N < 5 C F A Z M 9 V Z A u Z V Z V 6 3 i Y r Y J h h h z l ( ( Y c j ",
"Q M.N T [ [ ] ] T T T Q a.L.G.W q K.K.D.r.t.F.t.t.R.t.r.F.1.3.>.6 4.z.:.;.:.p.4.4.&.4.B.M.L.N.B % H h.d.w.7.7.8.f./ /  .h r.9.q.",
":.M.=.=.=.[ m B ] *.*.=.a.=.M.a.3.F.,.e.t.t.I.I.I.Y.t.9.9. .g.S.U C.4.:.;.=.=.4.=.4.a.4.4.4.m.M.! g.h.f.8.8.8.f.8.}  . .^ 9.f.f.",
"Z %.=.=.=.=.B *.p.p.p.p.p.=.4.&.Y e._ e.r.t.q.7.9.0.0.0.9.^ 1.>.N =.O.;.:.:.:.p.=.4.2.<.=.&.=.=.R h. .q.} 8.} 7.7.7.q.8. .^ 9. .",
"C O.=.*.*.=.` =.p.p.u.:.p.p.m.' Y r.e.3.q.t.t.t.0.9.0.t.q._ q.| B =.%.p.N.N.p.p.M.=.a.B.a.a.z.E Y I. .0.q.w.8.q. . .w.q.q./  . .",
"-.z.m.:.4.4.=.&.m.m.m.m.m.=.p.=.W 1.,.q.g.h.q.w.t.7.9.e.9._ 9.) N :.*.:.m.p.:.:.p.=.a.m.=.4.m.Q x I.,.9.9.7.w.q.7. . . .q. .)  .",
"V :.:.:.m.4.M.&.2.m.C.4.4.&.*.n R 1.| | 1.r.1.9.e.6.t.t.0.7. .Y N :.*.*.=.p.p.m.:.m.4.=.:.p.:.+.k b.e.9.e. .q.9.t.q.9. .q.q. .1.",
"A -.:.=.m.4.M.=.Q =.4.4.Z.N.p.b e | 1.1.1.1.( ( t.9.t.e.9.7. .R Q M.=.=.=.<.4.a.m.4.%.%.z.m.%.B i r.b.r.S.r.D.1.q.q.q.q.r.r.r.1.",
"o 5 7 5 9 7 b u 6 6 t B ` N b - : r r r h r : Y ~ l ~ l J l g & % U i U U N N E Q 7 9 M 9 M a $ O U Y W U W W H k Y J ~ ~ w k & ",
"Z.N.M.N.N.B.M.u 6 &.%.=.<.[ T <.R 1.1.| g.| ,.r w 9.$.t.e.e.I.r.b.S.r.H.D.g.J.i < m.C.A.m.Z.m.M.M.4.5.5.M.x.M.i @ R J  .q.9.,.,.",
"=.%.=.=.&.&.M.4.E  Xa.&.5.a...1.| 1.q.g.1.i.^.g.( |.e.9.e.9.,.e.e.e.e.r.,.r.}.5.u XXC.:.:.:.=.<.' &.<.z.;.z.L.4.q F.1.q.q.e.) ( ",
"%.%.:.=.=.B ` ` E 5.n n q e , r h h , @ H r 1.R Y q.l ,.,.,.,.,.$.$.$.9.9.^ Y >.Q z.8 8 9 9 6 - - e e $ V 9 %.&.i g.k _  .e.3.r.",
"=.%.%.` N.=.=.Q Q G.i | | | q.(.:Xh.^ q.R H | | ( q.) T.,._ _ _ ,.$._ _ t.9.Y r.s Z.N O.4.&.>.^.-Xg.T 4.Z p Z 4.i g.J t._ ,.) ,.",
"M 9 M 5 =.:.:.B E 4.U 5.R h.:X0X4X4XU.H | J 1.R Y I._ $.& w l Y c k c = P 9. .3.E _.a Q B ' 8XqX9X8X~.N Z M ;.2.U H.^ 9.= k Y Y ",
"Z.C.Z.M :.=.a.%.C G.i H J ^ w.;X;Xw.I  .J H 1.| Y r.( t.k 1.D.b.F.K.r.=  .7.) S.E x.N t E >. .4X9Xh.R ! 9 a :.2.H r.J t.Y 3.H.r.",
"9 a z.Z A.=.:.Z &.M.x #.D./ P +X;X/ ^ q.1.r 5.| >.r.( R.( ,.( w k U 1.Y E.9.) r.U L.8 &.H.J ^ #X6X/ Y 5.4.a ;.%.U F.^ /.t.,.Y q ",
"Z.%.:.7 Z 7 M u N x.i >.,X9.> /.OXf  .=X1.r g.| Y H.w Y j 3. .g.}.U g.Y J k 1.U U J.s +.1XR.> I.;Xf ( 5X_.u ! +.q h.h ^ Y ( >.>.",
"M E 2.B B 5 :.M.N &.U Y 1.4X_ E.$X( ,Xr.R H <.| R F.w l g 3.e.q H H F.U k w 3.) q >.U &.>.5Xr.U.4XJ ,XF.| U | U e P.r H k ( 1.w ",
"M.a.=.` m.*.4.` ! J.U r.Y i r.r._ R.l H H.U <.! R D.) R.,.,.D.t.h.1.1.,.|.r.) Y U a.N  XW i r.) | r.Y i P.R R | ! g.Y H.,. .U.E.",
"V Q M M :.:.;.V E 5.x P.>.) q j l l Y ) H.H >.) H 1.Y e.g w ( ( ( ( l g ) ,.>.>.U 5.6 J.M.5.6 x i U U &.G.T H <.' | H r.h J Y h ",
"Z :.Q M ;.%.=.=.Q S.1 5.S.W ! w l w R S.S.: S.H Y q.J _ k ( e.) k ,.( g ( 3.,.! q J.t &.J.Q N t N 1 %.M.L.6 T ! [ 1.R 1.> ~ 9. .",
":.z.;.F A.=.%.C C M.t y J.J.U ! ) Y R.H.q e >.R Y 3.Y e.Y Y ,.$.~ D.$.c t.$.W ,.U S.u % ;.].&.O.@.C z.XXt 6 N ] <.i.J g./ ^ 7.w.",
"a &.M.:.z.Z ;.%.E x.q q 1 s t 1 q i i % i n H U >.>.w $.r.D.r.( g $.e.,.b.Y ( 3.i x.6 N   Q d 2 2 8 a $ 9 b n T T X.G d.q.q.q./ ",
"2.&.o.Q &.&.z.E % 5.5.>.5.U 4.>.>.! ! ! <.N <.i E S.#.,.( #.#.W ,.$.$.) ) ( S.>.6 M.O.;.:.C O.D D ;.Q Q Q n <.K K X.{ | ^  .9.^ ",
"U U N B t N E % O q i i i U t N i n e n N Q U -   Q x W U U W ! W W x Y W x U q # 8 a V Z a a d o.a N ! &.T m ....v G  .| ^ J ) ",
"% U E U i W i W W y x W U Y U % % N B b Q =.=.Q E N W ! U Q E 1 6 N W U ! >.Q 6 %.*.;.%.%.Z O.1 1 +.W >.1.i.K d...G L  .H ( ( w ",
",.H.3.r.,.>.3.r.R._ ( r.r.r.}.U N !.4.*.b B *.V =.4.>.2.M.>.G.Q C [.M.4.=.>.=.%.*.=.:.-.:.;.c.+.x |.,.Y J R v , L G { L ) 1.I.D.",
"$.,.c ) ,.) | J ,. .l ) 3.l R ! E m.Z %.%.%.*.B B =.Q Q %.Z =.B Z :.u Q =.` Q ` B %.%.%.%.V @.&.i ) l 9.{ { { { L X.{ | q.Y Y F.",
"( _ r.) J Y 1.r._ _ Y 9.,.r.) W i :.m.` M M %.N.A.4.M B Q C.=.B A =.4.Z b A &.p.:.p.9 V V Z.z.+.k _ 9.q.J I { X.J d.L ^ Y q.) F.",
"_ ( ,.(  . . .)  .9.~ J Y r.#.U ! ;.;.%.O.Z O.;.m.&.Q &.V 4.;.Z Z %.=.%.%.` ` ` =.u.b *.Z ;.=.2.= 9._  . . .R  .q.q.h q.H h.9.1.",
") _ ( ,.r.Y  . .~ t.9.9.t.) ) Y Q =.M 4.:.Q %.:.4.%.C &.;.%.m.9 a =.N m.M.` B =.p.*.B =.u.` %.%.k e.l 3.D.) ) | ,.| r q.1.1.) h.",
") ,.( ) ) k  .h.9.~ ~ _ ) l r.W U C.Q %.O.;.4.&.;.4.;.;.&.V z.O.u M.V B Q &.&.[ B *.=.B S B p.Q k r.#.,.Y j r.3.( D.( Y  ._ _ w.",
"k Y ) ( ( Y k ^  ._ ,._ _ 3.( q 6 Q ;.;.:.=.Z M s Q &.;.4.=.Z M 8 Z Q B ' a.4.B ] B S p.N.` ` t % $.#.#.W W W Y Y ( Y  .^ _  .z "
};
