/* XPM */
static char *_cffabbc31934f96f7ae2f621eea7161eueLDAdn6B2fuCiP[] = {
/* columns rows colors chars-per-pixel */
"64 64 256 2 ",
"   c #190A07",
".  c #19120C",
"X  c #1D1814",
"o  c #270B09",
"O  c #3A0A07",
"+  c #2D130D",
"@  c #27160D",
"#  c #3C150C",
"$  c #371809",
"%  c #2C0E12",
"&  c #231514",
"*  c #2B1413",
"=  c #231B15",
"-  c #251B1A",
";  c #2B1C1B",
":  c #2C1916",
">  c #321412",
",  c #3C1514",
"<  c #351A15",
"1  c #3B1C14",
"2  c #341C1C",
"3  c #3B1C1B",
"4  c #36161C",
"5  c #39220B",
"6  c #2C221D",
"7  c #28241A",
"8  c #3C2215",
"9  c #33221D",
"0  c #3C221C",
"q  c #32291E",
"w  c #3B2B1D",
"e  c #352314",
"r  c #2B1C23",
"t  c #341D21",
"y  c #3B1E21",
"u  c #341F2A",
"i  c #2D2422",
"p  c #2C2A24",
"a  c #2D2829",
"s  c #342423",
"d  c #3B2423",
"f  c #332925",
"g  c #3B2A24",
"h  c #34252B",
"j  c #3B2629",
"k  c #342B2A",
"l  c #3B2B2A",
"z  c #38312A",
"x  c #382831",
"c  c #3E3635",
"v  c #2F302A",
"b  c #440C04",
"n  c #4C0B04",
"m  c #450C0B",
"M  c #4C0C0C",
"N  c #490504",
"B  c #540C05",
"V  c #530D0C",
"C  c #5B0C0C",
"Z  c #570904",
"A  c #4B1404",
"S  c #44130C",
"D  c #4C130C",
"F  c #441B0B",
"G  c #4A1A0C",
"H  c #451702",
"J  c #54120D",
"K  c #5B130D",
"L  c #541A0D",
"P  c #5C1A0E",
"I  c #571204",
"U  c #4D0D14",
"Y  c #440C11",
"T  c #530D12",
"R  c #5B0D11",
"E  c #5F0D19",
"W  c #4D1413",
"Q  c #431C15",
"!  c #4C1B14",
"~  c #431C1B",
"^  c #4D1C1C",
"/  c #471416",
"(  c #531414",
")  c #5B1414",
"_  c #541B14",
"`  c #5B1A14",
"'  c #54151A",
"]  c #5B151A",
"[  c #541B1B",
"{  c #5B1B1B",
"}  c #650B09",
"|  c #63140C",
" . c #6C140D",
".. c #651B0D",
"X. c #6A1A0D",
"o. c #661504",
"O. c #75170A",
"+. c #650F14",
"@. c #631414",
"#. c #6C1613",
"$. c #641B14",
"%. c #6A1A14",
"&. c #64151A",
"*. c #641C1B",
"=. c #6B1C1B",
"-. c #6B151B",
";. c #721613",
":. c #721B15",
">. c #7B1D14",
",. c #741D1B",
"<. c #7B1C1B",
"1. c #761518",
"2. c #720A00",
"3. c #462406",
"4. c #542705",
"5. c #432315",
"6. c #43231C",
"7. c #4B221C",
"8. c #432A1D",
"9. c #4B2918",
"0. c #54221E",
"q. c #5D221D",
"w. c #572615",
"e. c #563213",
"r. c #642407",
"t. c #7A2505",
"y. c #632216",
"u. c #6B2114",
"i. c #64221B",
"p. c #6C221D",
"a. c #6C2B19",
"s. c #7C2114",
"d. c #73231C",
"f. c #7C221C",
"g. c #762619",
"h. c #6F370E",
"j. c #431D22",
"k. c #4A1D22",
"l. c #431F29",
"z. c #531E22",
"x. c #5B1D22",
"c. c #5B1924",
"v. c #590F20",
"b. c #641D23",
"n. c #6C1D22",
"m. c #671A26",
"M. c #731D22",
"N. c #7A1F21",
"B. c #432523",
"V. c #4A2324",
"C. c #432A24",
"Z. c #43232A",
"A. c #422B2B",
"S. c #4A2A28",
"D. c #542323",
"F. c #5C2324",
"G. c #532A24",
"H. c #552C2A",
"J. c #5C2B2C",
"K. c #5B2727",
"L. c #4B3228",
"P. c #5B322D",
"I. c #54322B",
"U. c #452A31",
"Y. c #5C2E32",
"T. c #453735",
"R. c #5B3635",
"E. c #632423",
"W. c #6B2423",
"Q. c #6C2A23",
"!. c #6D252A",
"~. c #6C2C2B",
"^. c #642B27",
"/. c #732523",
"(. c #7A2522",
"). c #742A24",
"_. c #7B2A24",
"`. c #742C2B",
"'. c #7C2C2B",
"]. c #76252A",
"[. c #673829",
"{. c #76342B",
"}. c #642E30",
"|. c #782B33",
" X c #623834",
".X c #7B3432",
"XX c #794425",
"oX c #684539",
"OX c #6E492F",
"+X c #5F4137",
"@X c #765243",
"#X c #861A0B",
"$X c #8C1D15",
"%X c #861C18",
"&X c #971C18",
"*X c #941F0E",
"=X c #85260B",
"-X c #832214",
";X c #8D2215",
":X c #83231B",
">X c #8C241B",
",X c #882A1B",
"<X c #932215",
"1X c #94241B",
"2X c #9A221B",
"3X c #96281B",
"4X c #91370B",
"5X c #841E21",
"6X c #901F21",
"7X c #832423",
"8X c #8A2322",
"9X c #832B23",
"0X c #8B2C24",
"qX c #872A2A",
"wX c #932422",
"eX c #952927",
"rX c #873227",
"tX c #953428",
"yX c #873936",
"uX c #913535",
"iX c #A7342D",
"pX c #AA3600",
"aX c #91490D",
"sX c #B2530C",
"dX c #8D4C31",
"fX c #B6552F",
"gX c #AA6F30",
"hX c #986725",
"jX c #CC7709",
"kX c #CC7326",
"lX c #E87D2E",
"zX c #C45A1C",
"xX c #915446",
"cX c #996553",
"vX c #B17248",
"bX c #A64B48",
"nX c #D4774E",
"mX c #D87F61",
"MX c #F4A717",
"NX c #D0943D",
"BX c #EC8F33",
"VX c #FFAC35",
"CX c #E69818",
"ZX c #FFC734",
"AX c #B1885A",
"SX c #D29857",
"DX c #F99946",
"FX c #EE8D4D",
"GX c #FFB649",
"HX c #FAAE52",
"JX c #CE8F6E",
"KX c #EFB068",
"LX c #D6A360",
"PX c #FFC958",
"IX c #FFD459",
"UX c #FFCC44",
/* pixels */
"p p j t ; j s l f f f g d j l s q f l j h f q f f j P.7.g z g 0 L.I.8.3 I.R.A.l g g 6 z g j d g 2 d A.s f g d j f k l j j k k v ",
"p p j j ; j j d g s 9 d B.3 2 g d 9 2 d s s q g s U.H.6.8.w # G.oX6.6.1 I.Z.g s d d 9 q 9 9 0 d 3 3 0 0 s 9 3 j f k s s h s p z ",
"p 7 i s & s l 2 2 B.B.6.V.V.y C.V.~ k.k.Z.Z.6.1 3 R.3 o + 5.g.rXG $ V. XC.2 - g 3 k.S.B.d B.V.V., ~ 6.B.C.B.V.3 9 s t t s : - z ",
"X = X ; . * d > C.H.P.H.}.}.Y.J.J.}.}.J.Y.Y.P.7., y Z.9 + OXmX=XG 8.I.6.3 s l & D.D.Y.H.P.H.J.J.D.J.P.H.I.H.P.B.* s 2 t s - & k ",
"= f 7 f i s A.B.H./ ( ( ' W ( ' ( _ _ D ^ ^ F.0.B.d l l q e.SXvX[.C.Z.d A.s g j D.' ' W ' W ( ' ' W ! ! ! ! F.D.* l l j U.j s T.",
"& k i k p s j B.J.M ( V ( V V V V J A A _ m _ K.d s h h i $ gXaXO g s s s s s d J.' ) T ) ) V ( ( M J D L M E.D.o q s r s s s l ",
"2 j f v i s A.~ E.V *.@.b.*.@.@.@.d.%.| y.n _ G.2 l h s Z.F dXr.5.j l 6 z 7 k 0 F.] @.@.&.=.) ` $.) W.$.) C *.' + f j s j j j l ",
"j s q p X i A.~ ^.C @.@.`.*.| /.=.yX9Xo.%.B ` 0.l i s Z., [.vXA 5.j i f f p k 3 F.] @.@.-._.W.`.p.K d.=.%.Z &.E.> q f f k k s s ",
"> 4 g 6 f - A., E.C %.=.p.) /._.*.`.yXd.#.Z *.0.j f 6.S A cXdXXX7.s p v a i g 3 F.) ) #.qX'.W.` Q._.@.=.%.C &.F.> f f i - . ; T.",
"R.3 + w q k j , W.C | d.p.) d.B M ' !.=.=.C =.E.d 6 1 w.dX{.A J.C.s k p v 7 z 0 [ ] *.-.,.d.J n $.p.| ,.(.| @.E.> 6 - - p s s l ",
"3 R.9.8 g s j , i.C %.).W.) p.y.m ! [ J ` V @.{ y & L.OX[.F L.2 s s s s k p p 2 E.R C ) J L N K ).K =._./.@.*.E.+ 6 i i k k j l ",
"< R.G.# C.6 j k.*.K `.Q.`.*.$.dX~._ n A q._ { x.% s 8 5 5.$ s k s s ; d f v p 9 E.R @.V n J $.yX'.K /._./.@.*.F.+ e f f s i s l ",
"B.6.[.w.w s j k.i.K ).*.!.*.n u.rXyX9X%.L D ( / y j e 8 B.U.x x h s ; : s q k 0 x.R =.C W..X{.).K K *.@.'.=.) F.0 s f j k f f l ",
"e 1 xXG 8 s B.~ *.K ` J R R K N N f.tXf.J D F.J.Z.j g e j T.x i s j j l d 9 d 6.E.C @.$.yX{.*.N Z C ) Z *.` ) F.6.9 9 s s s f l ",
"w 9.dXa.6.9 Z./ { I L V E &.W.J J Z O.0Xn.U ' K.S.9 g g j j j A.j A.l T.j C.0 Q { C @./.'.Z Z Z $.@.*.) V V { D.6.d l l s f z z ",
"1 # X.JX[.+ O Y p.I ) ( |.|.Q.Q.{ L %.9X&.T ] { O Q Q Q Q k.# # Q / , ~ Q Q ! b b.C V /._.Z @.W.!.`.`.W.) V ) E.# , 1 > > 3 3 2 ",
"a.r.fXmXu.~.~.*.:.Z ] c.m.M n { }.}.q.J J C -.M.`.{.9X9XrX9XyX) (.rXrXu.a.rXyX-.-.&.( M { W.Q.W.U U ' Q.` C @./.b.~.E.E.E.E.J.K.",
"a.I fXfXo.=.*.| ,.C ] c.E.T M D M m S G ` C +.<.:.:X>X$X1X$X0X .%X%X3X>Xs.O.%X1.=.] ' W U b n M ' U D _ ` K @.=.+.=.$.$.%.%.E.E.",
"a.o.fX=Xo.p.` ) $.B ' U ' ' E.E.] J D _ q.J @.M.<.>X1X*X1X;XrX .-X;X1X1X;X#X%X;.*.( [ x.{ ( *.i.F.^ F F _ ` ) ] ) *.@.@.#.#.=.=.",
"g.X.=X=XX.*.i.( y.K F.' ' U W M W.=.` L ` J ) =.8XwX1X<X3X;XtX .,X1X2X*X<X3XeX;.$.( { ] { { W.*.D G H H _ ( { E.] *.%.%.;.#.=.=.",
"d. .O.0X .K E.J *.V ] c.*.b.x.) R @.@.) *.) *.M.5X&X<X*X3X;XeXO.>X<X&X&X<X;X>X;.y.) &.&.] ] *.R @.` w._ { J ] m.] *.@.#.%.#.=.p.",
"<.;.>.(.'.*.) ` i.( ) ) ) ) { { C Z ) ` *.T ) -.5XwX1X<X1X$XeXO.>X$X2X2X3X>X>X:.K B @.-.*.( ] ) @.K K ` { ( ] m.] *.$.%.%.%.p.W.",
"N.-.M.&..X!.( _ { { W.W.*.{ [ F.E.E.F.D.K._ ` =.7XwX3X1X3X%X0X .<.:XwX6XwX0X0X#.$.` =.p.E.{ { *.W.=.*.E.x.b.c.] ] *.$.$.%.$.i.W.",
"E.( x.F.( [ [ O W ( K C C ) W W J ( ( m W ( K Z d.d.s.>._.p.`.J i.W./././.d.).$.Z |  .Z K L ) J R C T ' T ] T M ( [ _ _ [ _ D.K.",
"g 9 g s d B.6.Q [ *.,.,.,.#./.K p.$.%.=.%.d.qX_.G 9.F Q V.3 B.0 B.8 B.0 0 8 Q q.qX%XwX%Xf.d._.@.=.&.&.] b.*.*.E.! 6.8 B.d 9 f T.",
". X X X - @ + G.[ $.,.<.:X,._.K d.:.<.f.f.:XwX_.5.  : : X = & - @ . = 7 X @ + ^.0X&X2X1X,X:X9X| %.=.*.*.=.*.i.^.7.  : & . - X v ",
"p z q s f s < G._ $.,.,.f.:.).B g.>.>.-X:X>X3X7X5.= l h h x h l j j s s k g > ~.eX&XwX>X3X,XrXX.$.` $.$.$.$.*.K.6.2 k r c x r T.",
"A.0 8 C.s t 2 ~ i.p.f.,.f.:.).I f.-X;X;X;X1X2X9X1 = x x u d 6.I.R.6.B.d s s * ^.eX&X1X;X>X,X0Xo.$.y.$.%.%.%.y.^.0 ; x a h d d L.",
"oXQ ! ! A.s d ~ Q.d.(.,.<.:._.| f.,X1X<X<X<X2XqX3 7 x h U.7.b dXxXM { k.j s 0 F.eX&XwX>X2X>XrX..u.=.%.%.:.:.%.E.C.& x h Z.G.G XX",
"}._ a.A Z.h 2 Q i.d.(.N.f.,._.K d.9XwX2X1X1X>X'.3 i h t G.4.=XnXrXK `.W g f : 0.qX$X8X>X3X>X9XK *.*.$.%.:.:.%.q.0 : k s H.L r.vX",
"` P dXy.< i ; B.q.u././.(.,._.K p.(.7X>X0X:Xd.^.d X h C.e.r.kXlXo.o.uX*.0 7 @ I.`.f.9X:X8X7X{.` { q.*.*.=.=.i.D.C.- s 0 w.I fXDX",
"dXo.4X,X~ j ; ~ P | @.@.:. .=.N C @.#.O.O.X.K _ 9 r j # dXt.kXDXsXI tXrX6.s : ~ ) } X.o. . .=.N ( ( ] &.@.@.K ^ s = A.$ XX4XsXDX",
"BXpXsXfXG y 4 J._.:X:X:X-Xf.'.R (.7XqX0X>X,X,X{.3 2 ~ w.vXO.4XHXBX4XpXfX! t 4 H.'.,X:Xs.,X:X'.@.=./.]./.d.f.).^.Z.; 3 w.gXt.t.DX",
"VXsXBXnX4.3 3 D.,.>.>.s.=Xs.'.+.%X:X8X>X;X=X-X).V.2 Q XXKXaX4XGXVXsXlXFXw.j 3 D.f.;X>X:X>X-XqX@.;.;.-.%.#.#.:.W.j.t 1 [.KXaX4XDX",
"MXCXGXgX3.5 + H.d.>.>.s.s.s.'.@.-X-X>X>X<X;X:X`.3 2 5.XXKXCXjXZXMXCXGXkX3.$ + K.9X;X3X1X1X$X0X| %...$.$.$.@.%.W.B.< 9.h.HXBXjXVX",
"IXPXNXr.3.w + H./.f.f.s.>.f.'.} -X;X1X1X<X<X>X'.j.; 8 4.NXPXUXUXIXIXBXt.3.e $ 0.rX;X$X&X2X<X0Xo.X...%.%.*.%.%.i.S.* Q 4.gXPXGXPX",
"LXgXh.H w f 2 ^ M.5X%X%X%X>XqX} >X1XwX&X*X*X;X(.j.2 S.# r.gXSXKXSXgXh.H 8 q < D.qX%X$X*X2X1X0Xo.o...%.$.$.%.%.' Z.r j 5.4.hXSXKX",
"3.$ # 6.s - 2 ^ M.5X:X%X$X>XeX} 8XwXwX&X&X<X<Xf.~ 4 y < F H H 4.4.H F 5.9 6 * P.).:X2X1XwX>X0Xo.$.=.*.` $.y.y.[ Z.r x d 5.3.3.4.",
"8 6.6.0 f i 0 ! /.f.:X:X-X:X9X} <.8X8XwX1X1X>Xg.Q 2 j 3 8.5.8 8.8 1 C.g f g < G.E._.eX2XwX%X9X| =.n.=.$.$.u.u.w.0 - x t C.8.3 C.",
"Q Q ! , 0 9 # m p.:.:.s.:.X.d.Z :.f.N.7X:X:X:Xd.S , 7.Q ! Q 6.< Q ~ 3 6.6.Q Q O { d.:X%X5X<.f.C &.&.&.@.@.$.| L O 3 4 Z.6.3 j.4 ",
"y.P ` ` _ w.` ) ,.7X,.(./.d.{.y.a.a././._./.(.#.p.p.d.f.f.u./.K %.d.=./.d.g.).V *./._.f./.`.Q.a.!.!.W././._._.| _ ^ ^ z._ _ q.' ",
"u.X.#.%.%.y.*.@.,.} C K ( D A A A A V V ( R -.,.d.:X$X$X>X%X9X .s.>.qX;.>X>.<.@.*.) K V T ( A G M T J K ) C #.d.) E.m.*.P $.p.=.",
",.#.#.#.%.=.=.&.n.R R T W [ S G A J J T ' M @.,.f.,X2X&X1X8XqX-.:.9XqX<.2.>XuX%.b.M M J ( W D D D J B B ) N +./.) n.n.-.| X.d.,.",
"N.-.-.-.%.=.=.@.n.R ] ] x.x.[ [ J ` ) ) x.( &.,.:.,X2X&X$X:XqX| g.:X8X1.tXiX-X%.W.( ) { ] { ' ( [ q.` ` { ) @./.@.*.-.=.%.| =.d.",
"d.=.&.#.%.X.$.| =.C ) n.!.v.] b.*.W.n.) { ( &.,.:.>X&X&X1X,X0Xo.s.tX%XeXiX*X;XO.:.C @.@.&.].m.b.] ( ` i.' ( @.p.P $.@.$.y...$.y.",
"p.*.*.*.%.%.$.) =.K $.=.].&.m.n.W..X|.*.{ D { =.#.;.%X$X>X-X,Xo.t.O.%XiX#X#X,XO.#.Z @.@./.yX|.m.W.J $.W.{ ( K %.K y.$.$.i.y.i.i.",
"y.{ x.b.*.*.b.{ { J y.$.p.*.=.W.' b.W.i._ G ` i.$.%.1.7XqX/.).y.u.u.<.uXbXd._.$.b.T { { i.Q.( ( `.$.p.p.~.] ) *.K p.n.*.E.q.{ { ",
"S S / / W W W U E.n y.%./.=...).V U ( ! ! S ` q.! S V ] { ( [ b H L @.C *.D W W b.T ' ( L J b ` *.$._.@.`.) &.W.M ' ' [ [ Y Y ^ ",
"B.d d d d 0 B.~ E.C _.d._._.%.).].*.S S ^ D *.` 6.6.6.# 7.6.B.B.8.5.! ^ 7.5.8 Q x.T ) ( m A p.{.` *.W./.`.) ) E.Q B.B.B.o o B.I.",
"s s i f f s j 6.{ R /.W.@.) n *.'.yX{.! [ W *.q.0 6 I.5.$ 8 l j 8 # oXP.8 9 g 0 D.) ) ( { .X{.) M ` ` { Q.*.] q.< 9 g f - 9 s l ",
"i i i f s 6 f 0 D.( i.M ( D M N T =.9Xu.*.U ] 0.9 f 1 @X[.H 4 0 ! OX[.8 0 g 9 y z.' ] &.yX'.K n m _ M m ( { { K.: 6 f i 7 k i z ",
"s f p f s s f 0 z.( M ( { ~.^.{ T N g.9X*.T b.z.* j 6.F cXcX9.3.xXa.$ 8 w 2 : % J.Y ] n.qXC N D F.^.q.[ D ( ' D.* f f 7 ; s i c ",
"s s s j j s g 3 K.T ] *.{.{ ^.~.!.) p.` m m x./ > U.j.V. XXXgXLXJXO F 8 2 ; l Z.z.' T V ].=.) {.E.F.^.~.] ( ( z.* l s s s s s A.",
"s s s j j s 9 > F.) ( E.{ J m ( E.E.i.M W W *.x.4 t S.R.6.$ 4.KXJXe.9.8.A.l j * ^ T ) V @.n.!.E.W b ( E.] ( ] x.> j ; s h s s l ",
"s s i s s 6 ; + [ T { ( { ( ' D b G J V $.B @.x.% 2 oX5.< 8.3.AXOX9.L.@XA.; j 6.[ ( ` J J M m Y ' ( ( ( ( ( { D.+ 6 ; i i p s c ",
"s p i i s s f 0 D.( ' ( ( { { q.L _ ] ] y.V =.' % l 8 1 B.5 4.vX5 $ e 0 2 6 g 8 q.B P i.( [ D.K.x.E.{ M _ ( ' D.o = s k f f i T.",
"f f p i s s l < D.( ( { ( ( ( V W.W.] { z._ V { 4 k j B.7.A dXAX# 8.g 6 l = : + { J K $.( F.J./ W V ( ` { W ( D.o g ; ; k f i c ",
"f f s ; s s l 3 D.( _ { ` ] { ] ) b.] c.^ D W._ 2 x 6 d P.L u.dX X1 e g s k = + F.K ) *.` ' 0.W { ) { { { ( { D.> g 9 ; s f 6 T.",
"9 9 s s j d j < z.( _ { ( ] { ] ( ( ( { ' ( ` _ 2 s e L.L.~ j.B.L.+X6.8 d j l d z.' ( ' _ ( ( ( ( ( ] ( ' ( { [ 3 d j s s s 6 T.",
"9 s g j j j g 2 D.[ 0.0.[ [ x.[ 0.G.W K.x.{ _ F 0 s w L.d d x h 0 6.R.6.3 d j 2 k.x.z.^ 7.0.{ { ' [ [ [ 0.[ [ ^ 0 9 j s 2 s - T.",
"= = & .   & = & 3 ~ ~ 3 3 ~ ~ 3 1 1 B.~ / K.5.+ o & o @ & & . @ @ o  X XD.o o 2 3 k.j.3 3 Q ! ! ~ 3 ~ 1 6.~ ~ > & . & & . X . p ",
"f f f i ; f v f 0 0 d d d d d 0 2 9 w 1 R.H.8 w A.l j l h k f g g g 6.P.oXP.0 2 B.l.j h g 0 Q 7.B.d d 9 d 0 B.0 f p k k f k p c ",
"i i s s ; k i i d d s s s s 9 s 4 C.$ OXoX< g 9 j.4 f f - - s t s : 0 < 1 oXC.< 0 t a a h i 6 s s 6 6 7 s 9 d s i p i s s s i z ",
"s s s s ; k a p s d s s f s s j Z.o OXAX8 d 6 d k.k.s 7 z s u x h j 6 e 9.+X5.1 2 s a a i a a a p i p i f 9 y s p k i h h s s l "
};
