/* XPM */
static char *_ab2992979594009e1d2e840852ef20fXQXXNhNY28GYfFOH[] = {
/* columns rows colors chars-per-pixel */
"64 64 227 2 ",
"   c #3E160C",
".  c #3F180E",
"X  c #3F1B12",
"o  c #491607",
"O  c #43160C",
"+  c #4B160C",
"@  c #43190E",
"#  c #4C190E",
"$  c #52150C",
"%  c #5D140B",
"&  c #541A0D",
"*  c #5B1B0E",
"=  c #461710",
"-  c #451B12",
";  c #4C1C12",
":  c #4B1F19",
">  c #531710",
",  c #531C13",
"<  c #5B1C12",
"1  c #571F1A",
"2  c #5A1F19",
"3  c #63160C",
"4  c #69170E",
"5  c #651A0E",
"6  c #6B1A0E",
"7  c #701B0F",
"8  c #641610",
"9  c #641D12",
"0  c #6C1B11",
"q  c #731C12",
"w  c #7B1D14",
"e  c #751F18",
"r  c #4E230D",
"t  c #55240E",
"y  c #5D240F",
"u  c #59280E",
"i  c #452115",
"p  c #4C2116",
"a  c #46241A",
"s  c #4D231A",
"d  c #4E291C",
"f  c #542314",
"g  c #5B2513",
"h  c #572A16",
"j  c #5B2A14",
"k  c #54241C",
"l  c #5C241C",
"z  c #54291E",
"x  c #5C2B1C",
"c  c #5B321D",
"v  c #64220F",
"b  c #632513",
"n  c #6C2415",
"m  c #632A15",
"M  c #6B2B16",
"N  c #63251B",
"B  c #6D2519",
"V  c #652C1B",
"C  c #6C2C1B",
"Z  c #722315",
"A  c #792315",
"S  c #722916",
"D  c #782A17",
"F  c #75251A",
"G  c #7B251A",
"H  c #732C1B",
"J  c #7B2B1C",
"K  c #663117",
"L  c #6F3017",
"P  c #64331C",
"I  c #6B321D",
"U  c #74311D",
"Y  c #7A331E",
"T  c #783819",
"R  c #4D2C22",
"E  c #542721",
"W  c #5B2621",
"Q  c #542B21",
"!  c #5B2C23",
"~  c #5B2E28",
"^  c #573126",
"/  c #5C3125",
"(  c #543228",
")  c #5D342A",
"_  c #5E392D",
"`  c #573C32",
"'  c #5E3B31",
"]  c #622720",
"[  c #632B23",
"{  c #6B2D22",
"}  c #662E28",
"|  c #742E22",
" . c #7C2D22",
".. c #643324",
"X. c #6C3423",
"o. c #643924",
"O. c #693825",
"+. c #63342A",
"@. c #6B352B",
"#. c #633A2D",
"$. c #6B3C2C",
"%. c #743323",
"&. c #7B3323",
"*. c #753925",
"=. c #7B3A25",
"-. c #73352A",
";. c #793629",
":. c #753B2B",
">. c #7B3C2B",
",. c #633D32",
"<. c #6B3D32",
"1. c #703530",
"2. c #743C32",
"3. c #7B3E34",
"4. c #67432F",
"5. c #6C412D",
"6. c #73412E",
"7. c #7C402C",
"8. c #654134",
"9. c #6D4234",
"0. c #664439",
"q. c #6C453B",
"w. c #66493D",
"e. c #6E493D",
"r. c #724334",
"t. c #7C4434",
"y. c #744834",
"u. c #7B4A35",
"i. c #72453B",
"p. c #7B443A",
"a. c #74493D",
"s. c #7B4B3C",
"d. c #7D503C",
"f. c #6D4D42",
"g. c #744D42",
"h. c #7B4D43",
"j. c #6C5144",
"k. c #755245",
"l. c #7C5244",
"z. c #755549",
"x. c #7C5449",
"c. c #76594D",
"v. c #7D5A4D",
"b. c #7B5C51",
"n. c #7D6056",
"m. c #7E6358",
"M. c #80271A",
"N. c #84361B",
"B. c #822E23",
"V. c #843224",
"C. c #813925",
"Z. c #833629",
"A. c #823B2C",
"S. c #893F35",
"D. c #9D4317",
"F. c #844227",
"G. c #82422E",
"H. c #954A27",
"J. c #9B5229",
"K. c #844332",
"L. c #8A4535",
"P. c #824836",
"I. c #8A4A35",
"U. c #894539",
"Y. c #834C3C",
"T. c #8A4C3D",
"R. c #914C39",
"E. c #83543F",
"W. c #8B523F",
"Q. c #A95828",
"!. c #B15E2E",
"~. c #BC682D",
"^. c #AE6330",
"/. c #C45718",
"(. c #C96526",
"). c #C76E31",
"_. c #824E42",
"`. c #8C4F40",
"'. c #835344",
"]. c #8C5343",
"[. c #895647",
"{. c #8A5945",
"}. c #83554A",
"|. c #845B4C",
" X c #8B5B4C",
".X c #925946",
"XX c #94584A",
"oX c #935C4B",
"OX c #845E52",
"+X c #8A5E52",
"@X c #935F50",
"#X c #86614E",
"$X c #8B614F",
"%X c #92614E",
"&X c #9A674E",
"*X c #856154",
"=X c #8A6354",
"-X c #8C6957",
";X c #856559",
":X c #8A6559",
">X c #856A5D",
",X c #8C6A5D",
"<X c #946453",
"1X c #9A6554",
"2X c #9C6757",
"3X c #946957",
"4X c #916759",
"5X c #936A5B",
"6X c #9B6B5C",
"7X c #93705D",
"8X c #A36757",
"9X c #A56A5B",
"0X c #A0715E",
"qX c #856C60",
"wX c #8D6D61",
"eX c #946E61",
"rX c #9A6E67",
"tX c #867063",
"yX c #8E7164",
"uX c #937264",
"iX c #9B7364",
"pX c #95766A",
"aX c #96786C",
"sX c #9D7A68",
"dX c #9D7C72",
"fX c #A37462",
"gX c #998273",
/* pixels */
"f f , f x N 0 6 5 0 0 q q 0 q A G &.) , 0 0 < , , < < , < < < < , <  .V.x ,.| q 0 3 8 8 4 q F k k N G A q 0 0 0 0 0 0 0 q q w M.",
"# # # ; # * 0 6 0 0 6 0 0 5 0 6 q  ._ , 0 8 > > > $ $ > > > & > , * H B.l ,.H q 0 3 3 6 6 q F ; ; 8 A q q 0 0 0 0 0 0 0 0 0 w w ",
"+ + + # # $ 6 6 0 6 6 6 6 3 3 0 0 H ) $ 3 5 $ $ $ + + $ $ $ & & * 9 F J f _ B 6 0 6 4 0 q q n - = < q q q 0 6 0 0 6 6 6 6 6 q w ",
"! ! / ~ #.$.-.:.-.-.-.-.;.{ ] N ] $.#.x -.-.@.@.@.$.@.@.@.@.-.X.-.-.>.>.<.q.@.X.@.@.@.@.@.@.$.+.) } { %.;.;.>.>.>.:.X.{ C { | | ",
">X>XwXwXuXpXpXuXwX5X=XOXv.q.q.q.q.e.e.k.v.OX*X*X;X;X*Xk.8.8.9.9.i.a.a.a.g.g.g.h.OXn.n.n.n.n.;X|.s.s.r.a.'.}.}.l.'.}.}.;X:XeXrXrX",
"z z Q Q Q Q Q Q z X.%.x Q : s s s z ) ) #.,.8.8.8.8.,.Q - - - - - : - - ; ; ; ; ) ' _ ' ,.' ' ..m P j m P P V j j j P <.<.r.p.p.",
"p p p p p p p s k V I g d : : : : s Q z / _ #.#.#.#.#.z p - - = = = = = = = = - / _ _ _ ,.8.8...m m j m m P P P m m .._ +.2.3.p.",
"! ! ~ ! ! / / Q ! O.$./ ^ R Q Q z Q _ #.#.8.9.9.9.9.9.+.) / Q ! ! Q Q z z z z Q ,.,.,.,.q.8._ O.P P P P P P P I I I $.e.2.2.p.p.",
"S.S.S.S.U.5Xk.9.q.i.i.q.e.e.g.g.g.g.,Xs.P.t.t.t.u.t.t.P.t.:.:.:.Y.,Xg.a.e.e.g.g.f.g.g.g.k.f.d 7.>.*.7.7.7.>.:.:.:.>.t.5Xr.-.-.-.",
"0 0 0 q Z Y.! , k k k k E ! ! ! Q Q x.X.M M M C M M M M M M M b C y.s ; : s s k k k k k Q ` s I C C U U U C C M M M I |.X.V M m ",
"% % % % 3 3.Q = ; ; ; ; ; ; ; ; ; ; g.X.m b b m m m m m m m m b m @.- - - - ; ; ; - - - : R i M M M M m m M M M M n M l.P m m m ",
"%.| %.%.| ].*Xe.g.g.a.e.a.g.e.g.k.z.pX:.%.%.*.*.U C I I M M C M X.=Xv.v.z.k.x.z.z.v.v.c.v.c.Q %.%.%.%.%.%.%.{ C C C :.5X:.-.-.-.",
"L.L.L.U.U.].'.Y.'.'.'.].].].].].XXoXs.{ ;.;.A.V.G G G G G G A A %.K.Y.`.`.T.T.].].XXoXoXoX+X! Z F F  .J G F F F G J &.T. .B.B.B.",
"3 % % 3 5 M b v b M C n 5 5 3 3 0 F 9 l 1.<.2. .q q q q q q q q Z n n n n n 0 0 5 0 0 F G t.x 3 6 0 q q 0 0 0 0 q q A H 0 q e q ",
"% % % % 5 M b b n n C n 5 % % % 3 0 < 1 } @.@.J q q q q q q q q Z n S n n n 0 5 3 3 8 Z A T.<.3 5 0 q q 0 0 0 0 0 0 0 C n F e e ",
"3 % % % % < * * * < 9 < 3 % % % % 8 , ; 2 ; < n 6 6 5 5 5 3 3 3 & b n n n n 5 % % % % 3 5 r.y.$ % 5 0 8 8 8 5 3 % % % < 8 0 0 0 ",
"p.p.s.s.s.a.h.i.s.s.s.h._.@.@.2.2.p.h.q.i.i.h. X9X0X0X6X5X|.'.l.g.q.s.t.t.s.r.$.+.$.r.i.i.=X5X|.|. X5X6XfXfXfX5X X X|.l. XoX<X2X",
"r.:.$.6.r.a.l.a.i.i.i.i.x.:Xp.p.p.h._.'.}.}.h.a.a.e.e.q.q.0.0.0.z.OXh.g.g.g.;X;Xi.p.h.h.h._.'.}.h.q.e.e.e.e.e.f.g.g.k.OXoX.X].W.",
"j g g g j x ! k k k 1 , ~ g.l l l ] [ [ } [ , O O O O @ O @ @   a ) x l l f #.+.N ] l W W l W W k @ @ @ . . @ - - - a $.G.A.=.=.",
"j g g g j j k k k k , , +.9.l l l l ] ] [ l ; O O O O           a ! f l f f ) +.N ] W W W l l l k O . . . . @ @ @ @ - ..>.>.=.&.",
"j j j j h h k k k k k k <.g.[ [ ] ] ] ] ] x k - - - - - - X - X a z g f k k q.i.! W W W W W k k s . . - - - - - - - i ^ { C C X.",
"=X=X=X=X*X,X=X'.'.[.|.|.3X X'.'._.'.5X=XOXOXOX;X,X,XwXwXyXwX>XqXtX*X'.'.'.'.4X<X'.'.'.'.'.=X5X:X|.v.:X,XwXyXuX,XwXuXyXyX;X:XeXpX",
"z z z z <.gXs.C C H C C C M C C C -.iXi.<.<.9.<.i.<.+./ +.#.+.w.>Xs.%.%.H | H H %.%.H H %.3X*X5.6.$.5.5.+.#.+.+.+.+.+.e.,.,.,.,.",
"@ @ + @ Q m.:.n n n n n n n M M M C }.+.[ #.,.@.@.l + O O O @ ( n.{ n n n n n n n n M C S {.9.j m m j h f # # + + + + k k z k k ",
"@ @ O O p w.X.n n n n n n b b n n N i.[ l ! +.[ ! l > + + + = a ' M n n n n n n n n n B S s...m m m j g f # + + + + + k k k k k ",
"#.,.#.#.e.>Xi.<.2.r.9.<.<.$.<.$.$.9.eXh.+.#.9.<.+.+.! ..~ ! ! w.z.#.:.2.2.@.[ ....@.@.@.@.=X|.X...o...c x x ! / ! ! ! ) +.) ) _ ",
"g.g.g.g.x.k.x.|.v.|.b.;XeX1X6X2X2X2X2X<X X[. X@X<X X:X,X,X,X;XuXaXwXwXeXeX;Xc.|.'. X+X<X1XiXsX-X-X5X7X7XuX5X6X6X6X6XiX6X5X6XiXiX",
"; : - - - = : ; = = - ' *.A 0 0 Z Z 6 5 n M S S S C q.Q z z k s s z k k k s w.{ n Z S S F H j j h h h c k.*.Y H Y Y H H H U Y Y ",
": - = O O O O = = O   ' H q 6 6 0 6 6 0 n S S S S m _ - = = @ @ @ @ - - - - 8.n q Z Z Z A Z & t t t r r 0.U D D D D Z F S S n S ",
"_ _ _ _ ) _ #.#.,.,.f.c.:.*.*.*.-.-.-.-.-.-.-.@.@.$.c.9.8.8.8.,._ _ ,.,.8.k.pX:.%.%.%.;.%.*.@.$.5.5.$.4.>Xs.*.*.>.>.>.>.-.-.:.:.",
"h.l.x.x.x.x.h.h.h.h.OXdX|.l.l.l.h.}.<X'.h.i.a.g.a.OX7X%X$X$X$X4XdX:XOXOXOX:X:X+X X X X[.}.:XuXoX].Y.T.'. X[.]._.l.h.k.uX5X3X4X<X",
"<.@.@.@.@.+.W l k k l +X<.+.+.~ ~ [ p.X.l f , , ; ..:.I V V x x |.<.! ! ! ! ! ~ ! [ [ ! ! v.h.0 6 6 5 3 5 Z F B f 1 z x.I I P P ",
"+.+.+.@.@.+.W l k k k x.) ) ~ ~ ! ! @.C l f ; ; ; k P V j j j h '.+.W W W W ! ! ! W W ! l i.9.0 0 6 6 5 6 n Z n l f k 8.m m j g ",
"......+...! k k s s Q e.Q z z Q Q ! +.j f f f p p z h f f f f h E.#.! ~ ~ ! k Q ! ! ! / ! k.8.9 5 5 5 5 5 5 9 9 , # k 8.x j j f ",
" X[.[.'.|.*Xz.a.g.x.OX:Xx.x.|.OX:X5Xb.k.|.$X%X X<X<X].Y.W.W.W.W..X].W.W.W.].v.=X5X5X5XuXuXdX*Xa.a.a.h.h.|.'.[.}.|.|.*XuX-X=X-X-X",
"%.%.%.H *.k.Q l l l W k k ! 1.-.2.t.( j.Y.>.G.A.A.=.J J H S S n n n n Z S n s.T.R.I.*.[ x z ! ! ! ! ! / |.t.%.%.%.X.X.:.) Q d d ",
"n n n n M 8.- = = ; = O   ; { -.-.-.a ( %.H H H &.&.G Z 5 & + + + + + $ $ ; #.*.C.&.m , ; = ; ; ; ; ; , #.C n b b b b g @ .     ",
"b b b b M a.- O O O O O   O f { { %.X i b b b v b b n 9 + O O O O O O O O O ! L H H b , + @ O + + + + ; ..m b b b b y y @       ",
"[.'.'.{.$XiXa.i.i.g.g.k.k.g.a.h.h.[.z.j.|.|.}.}.}.l.|.|.l.l.}.}.|.|.|.|.|.*X5Xy.r.t.s.y.i.e.q.e.e.i.i.k.:Xy.r.6.5.9.y.s.e.9.9.0.",
"Y.t.6.6.>.-.-.>.>.>.>.1X|.<.$.+.$.<.<.<.<.q.i.i.q.l. Xu.u.y.u.s.s.r.r.i.9.9.9.9.9.9.i.i.g.sX X].].].]..X.X{.%X1X1X1X2X1X].].W.{.",
"M y g b n n n n n n n P.! > ; + + + # ; ; ; > , , k :.m g g g g f , , ; ; ; ; ; , , 1 1 k r.n S Z Z Z Z S M *.I.I.I.I.7.M M M U ",
"M m b m n n n 0 0 0 n >.k ; > + + + # ; ; ; , , , f P g g g g g f , ; ; ; ; ; ; , 1 1 k k X.n Z n Z n n S M *.G.I.I.I.G.L b M L ",
"x x x x x l x l f l N :./ s p p p s s s s s k k z z ..j j j x x h p p p p p s s k s s z Q #.b b b b m m m g m I I %.%.I g t j g ",
"|.OXOXOX:XaXwX,X:X:XwX,X5X:X;X;X;X,XwX;Xv.z.v.v.OX*X=X|.|.|.OXOX*X*XOX:X,X:XwX,X=X X|.=X5X<X'.$X|.#X=X=X=X=X#X#X#X|.|.|.|.l.x.|.",
"k z x ! ) ,X<.} } } } } W l k k k k z ! k k k k k ! / ~ / / / _ _ ,.) ) ~ +.<.3.H J F F J F X.y.P P o.o.o.O.o.P P P P o.x x x x ",
"k k k k ! l.l l N N N l , + + + + + + ; , ; , , , z Q Q Q Q Q ~ ~ ! k k k ! ! 9 6 q q q A A C O.u j j g j j j j j j u j f g f g ",
"; ; ; ; p / 2 l 2 2 2 2 , ; + + + + O ; > ; , , , z z E z E Q Q E k k k k k k $ % 3 3 3 5 V x o.t u u u u u j j u u u j g g , g ",
"<.8.8.<.g.x.i.a.i.9.<.#.+.+.+.#.#.#.#.#.+./ ) ) ) / +.#.#.#.,.<.9.9.9.9.<.,.9.2.-.@.$.i.*XyXk.'.6.5.5.$.o.o.o.o.o.o.o.o./ / ! / ",
"eXeXeXiXiXiXuXuXuXeX,XpX5X<X1X1X1X1X6X1X<X%X1X3X6X0XiX1X1X2X2X8X8X8X9X9X9X9X@X+X4X4X4X5XiXiX,X:X+X+X+XOX5XoX.XoXoX%X%XoXXXoXoXoX",
"x k k k Q Q k k Q z Q v.>.H H Y H S H H H U Y Y Y ].P.Y Y N.M.A A A A A A A F } +.+.+.+.+.+.~ ! ! ! ! Q g.t.&.%.&.&.%.Y &.&.Y Y ",
"= = - - - - - - - - - $.%.S C M M M M M M S S H S I I J J J J A q q q q q 0 9 x ~ ~ ~ ~ ! Q z k s : ; : <.%.H H C C C S C C C S ",
"@ O                   x b b b b b g g b b b b b b g m S S S S n 6 6 7 6 3 $ + = = = = = + @ - = O O     p M b b b b b b b g b b ",
"e.e.q.q.q.e.a.g.g.g.k.=X}.s.l.l.|. X X|.l.l.l.l.k.k.9.O.:.@.$.$.:.<.r.r.<.<.8.8.,.,.8.8.8.9.8.8.8.8.8.0.q.y.9.9.9.y.9.9.9.5.r.s.",
"T.T.`.T.T._.'.}.}.[.'.'.oXXX].].P.P.Y.XX].W.].].].E.u.s.s.s.d.d.=Xz.q.q.q.q.a.g.a.a.a.a.h.s.a.a.a.a.g.h.h.l.l.l.h.h.h.*X}.-.>.3.",
"5 5 5 5 0 { } [ [ [ ] ! *.=.&.H n b n %.=.=.Y Y U m m m m m K K ..s - - - = # + # # # # # # # + + # ; ; ] } } } ] } { i.-.3 5 0 ",
"8 8 % % 8 V [ ] ] ] ! ] %.&.Y H n n n H =.&.Y Y U m m K K K K K x : - - - = + + + o o O o + ; ; ; ; = O l ] } [ [ } [ ..C 0 0 8 ",
"< & & & < f k k k k k k x V V C V M m j I C V V V x P P P P P P / s a a a : = ; ; p p p p p s s k s s p z / ~ ! ! ! ! O.J.N.b N ",
"l.l.l.l.l.x.x.x.z.v.v.OXOX|.OXOXOX*X*XOX|.|.|.|.*X=X5X3X3X5X5X5X=X X=XOXOX|.v.|. X|.|.|.OX|.|.|.x.x.z.v.=X-X=X=X<X&X&X).~.Q.'.}.",
"..[ } } ............+.#.<.+.../ ! / +.+.! ....X.X.*.7.*.-.:.*.*.%.*.*.x l { l.G.A.>.>.>.>.-.*.I x l l { K.>.*.*.*.J.(./.(.F.*.*.",
"f > > > & > > , , 1 1 k l k ; ; ; ; p z f f g m M U &.U C M M C M M m & $ , y.>.Y H H H H C M g f l f j Y Y H H Y ^.(.~.H.H.Y Y ",
", ; > + + # # # ; ; ; = ; = + @ - @ @ p - - , g b m M M m m m b b b g + # f +.C b b j j g < * & # # # & m b b m D.~.Q.T L N.M M ",
"..........! +.........+.#.+.+.+./ / / / +.<.#.$.8.9.y.a.s.s.d.s.r.y.y.a.a.h.|.l.l.s.s.s.y.9.8.<.$.$.$.9.9.$.9.t.Q.!.Y.9.9.-.-.-.",
"l N V N -.t.U.&.&.&.&.;.A.T.[.A.&.&.&. .&.T.R.=.{ { V P V %.A.A.T.A.| C N C { C { C H &.Z.U. XU.K.A.A.K.K.W.L.A.V.Z.Z.T.].A.&. .",
"+ $ $ $ n -.H 5 3 6 0 0 q A.T.0 6 6 5 6 6 %.V.5 $ + o o + 5 0 q -.n * $ $ $ $ $ $ $ % 5 6 B t.&.J H J H S A.F q 6 6 4  .K.n 0 0 "
};
