/* XPM */
static char *af10988cbd0a4215abec5922aa2a0f9adYcbvPfXmLk8ilej[] = {
/* columns rows colors chars-per-pixel */
"64 64 165 2 ",
"   c #474E56",
".  c #484F57",
"X  c #4D555B",
"o  c #51595F",
"O  c #535B62",
"+  c #585F65",
"@  c #576067",
"#  c #596166",
"$  c #576068",
"%  c #5B646B",
"&  c #5F686F",
"*  c #5B6771",
"=  c #5F6971",
"-  c #63666B",
";  c #64686E",
":  c #686B6E",
">  c #646C73",
",  c #6B6E72",
"<  c #666F78",
"1  c #667077",
"2  c #6C7175",
"3  c #66717C",
"4  c #6C747B",
"5  c #6F787D",
"6  c #717275",
"7  c #73757A",
"8  c #78777A",
"9  c #75797E",
"0  c #7B7B7D",
"q  c #6F7780",
"w  c #6E7A84",
"e  c #747C83",
"r  c #7A7D83",
"t  c #767F89",
"y  c #787F88",
"u  c #807F82",
"i  c #778087",
"p  c #7D8186",
"a  c #76818A",
"s  c #7C848B",
"d  c #7F888E",
"f  c #7C8790",
"g  c #7E8992",
"h  c #7D8C98",
"j  c #838385",
"k  c #888582",
"l  c #8A8986",
"z  c #83868A",
"x  c #89878A",
"c  c #84898D",
"v  c #8B8B8D",
"b  c #918E8E",
"n  c #92908E",
"m  c #848C93",
"M  c #8A8E93",
"N  c #848F99",
"B  c #918F93",
"V  c #879096",
"C  c #8C9196",
"Z  c #86919B",
"A  c #8C949B",
"S  c #8F989F",
"D  c #949394",
"F  c #989696",
"G  c #9B9997",
"H  c #92969B",
"J  c #989798",
"K  c #94999E",
"L  c #9B9A9B",
"P  c #9F9D9E",
"I  c #A39F9E",
"U  c #A3A09E",
"Y  c #8795A1",
"T  c #8B97A1",
"R  c #8E99A0",
"E  c #8D99A3",
"W  c #8E9DA9",
"Q  c #9399A0",
"!  c #909AA2",
"~  c #959AA1",
"^  c #939CA3",
"/  c #939DA3",
"(  c #959DA2",
")  c #979EA6",
"_  c #999FA3",
"`  c #9A9EA2",
"'  c #989DA5",
"]  c #949FA8",
"[  c #A19FA1",
"{  c #96A1A6",
"}  c #98A0A6",
"|  c #9CA1A6",
" . c #95A2AB",
".. c #9BA3AA",
"X. c #9BA4AB",
"o. c #9DA5AA",
"O. c #9DA4AD",
"+. c #9EA8AE",
"@. c #9BA6B0",
"#. c #9EAAB2",
"$. c #A3A1A2",
"%. c #A4A2A1",
"&. c #A4A3A4",
"*. c #A7A6A4",
"=. c #A8A4A3",
"-. c #A9A6A5",
";. c #ACA8A7",
":. c #A3A6A9",
">. c #A8A6A9",
",. c #A0A8AD",
"<. c #A2A9AF",
"1. c #A3AAAF",
"2. c #A4A9AD",
"3. c #AEACAB",
"4. c #ABABAC",
"5. c #B0ACAB",
"6. c #B1AEAE",
"7. c #B0B0AF",
"8. c #B4B0AF",
"9. c #A1A8B0",
"0. c #A5ABB1",
"q. c #A3ACB3",
"w. c #A5ACB3",
"e. c #ABAEB2",
"r. c #A4AFB9",
"t. c #B1AFB0",
"y. c #A6B1B7",
"u. c #ADB1B5",
"i. c #A6B1BA",
"p. c #ABB4BB",
"a. c #ADB8BE",
"s. c #B7B3B2",
"d. c #B3B3B4",
"f. c #B9B6B6",
"g. c #B9B9B7",
"h. c #B4B6B9",
"j. c #B9B7B8",
"k. c #B4B9BD",
"l. c #BDB9B8",
"z. c #BCBBBC",
"x. c #C1BEBE",
"c. c #C0C0BF",
"v. c #ADB7C0",
"b. c #AEB9C2",
"n. c #B4BDC4",
"m. c #BABDC1",
"M. c #B6C0C7",
"N. c #BBC1C5",
"B. c #B5C1C9",
"V. c #BCC5CB",
"C. c #BFC8CE",
"Z. c #BDC7D0",
"A. c #BEC9D1",
"S. c #C4C4C5",
"D. c #C9C6C6",
"F. c #C4C6CA",
"G. c #C5C9CC",
"H. c #CACACB",
"J. c #C3CCD2",
"K. c #C9CFD5",
"L. c #C6D0D6",
"P. c #CAD2D6",
"I. c #CDD4D9",
"U. c #D1D7DB",
"Y. c #D5DADD",
/* pixels */
"..O.w.<.0.9.<...O.' Q ) A m m s m s s a V m C Q ) R ) Q } K ~ C m Q C z c c z z y c z z z c c v v v z M v D K %.$.F *.3.3.8.6.s.",
"O.9.9.o.<.O.<...0.o.A ..A m m m m m m y m m Z S A Q ) Q ( K A C C K M s s s z z p r e p p r z z v v r M D D J I G J *.-.U 3.5.l.",
"A H Q H K A H C A A m C m e e e e e e e a a s m m m M m M m c s s C z 9 9 4 7 r 9 r 7 9 7 6 r 0 0 0 6 r j j v b l l D J k J I ;.",
"m m M M M m m m m z c m c 9 7 e e e 9 9 e e y s a s z s z c c z p z z z r 9 7 9 9 7 7 7 7 7 0 8 0 p 0 r 0 u l l l j v D v J I =.",
"o.<.<.X.o.( } / ) A A  .o.m a m s m c s m A S ( A ( } ~ K K _ ( H ( H C M z c C c z c z e r v z M F M D v v G G P $.%.3.L -.-.5.",
"........} { { C Q C C C A N s a a m a a s m C / A Q ( K A Q K A A K m c s e p c z r z p 9 9 p 9 z x j z j j F v J $.G I G $.%.3.",
"..X.X.....X...A A m m C m Z s a a m a a g m m A A / A C A A K V A A m m s i i s p e j p p j j 9 j z u j j z D M B F b J G %.%.-.",
"O.X.......X...Q A Z m C m m m s t a t s d d g m m A A C A H A A m M m m c i p z p y p p 9 r r r l j j j j v F J D B v D G >.3.f.",
"O.O.X...X.o.) S Q Z Z A N s C s a s a g s s m m N A H ( A C A H z m s s s e p s y p j r 4 r 0 0 x j k j v D F J G G $.G 3.g.f.D.",
"X.9.O. .X.X...Q Q A Z C m s m g y m s m s s f g m A H _ ~ H m K M m s s z y y r r j j y 2 7 6 7 z j j j M D J J L J I *.s.x.x.S.",
"Q ) ) R A A Q C V m f s s e t s e y a a i s a a s m m M m m s M m c a e y e 7 7 6 9 9 7 , 6 , ; 7 8 r 0 j j v F D z B F P >.d.6.",
"m m m m m c m s s i e y e 5 5 5 7 4 2 4 4 5 5 9 9 e e i e e e y r i e 7 7 2 < 2 2 2 2 , , , : , 8 6 8 7 0 r u j l j l v v D G P ",
"r.9.9.X... .] Q ) A N A C s s s f f s m m m m A Q A H A A A C C K H m z M p p s p j p j r r r z M j v v v v D F G $.P P G %.t.d.",
"r.#.q.X.X.) ) A S Z m Z V a a t s g s s f m m Z A A A m C H C m V m a y s r z r 9 p p r 7 9 7 6 j 8 z x z z M F J L L J F P 3.6.",
"a.q.9.#.] ] ) R R N g m m a a w s m f f s g m C / ) Q A A A C m m z z i e e z y r p e r p r 0 0 j r j z v D F G D J $.I F P 6.s.",
"b.p.#.X.....) R Q C N Z N a a t s m f s a g V A Q ~ H C A A C V M m c a y r r 4 7 r 7 r j 0 r 7 0 j j j z B D D J P P P F F %.3.",
"p.p.#.#.O.O.) R R A A A m s a a a g s a s m M A C H K H A H V V C V m s y e e 1 4 e 9 r r 0 0 7 6 0 j z z M v v G L G J G F L %.",
"e.p.p.q.q.+.Q A R A A A N g a a s s a f m C A A Z A K Q A ~ H A V M m m i s z r r p i z r 9 r 0 0 j j v M D D D G G F D J D D I ",
"p.p.p.X.O.] A A C Z V N g a t e y a a s m m V m g m m m m K H A M m M c y r y r r r 9 r 6 7 0 7 0 z r j z M l l J G G F D F F G ",
"K C Q A C m m m c s s e e e 4 4 4 5 2 4 5 e e e e e e e e s y r e e 7 7 < > ; - > , , 2 - , , , , 6 6 6 7 0 0 8 j 0 j j j j k b ",
"V.n.n.k.p.q.X.9.9.X.] ) Q A m m m m Z m N C A ] ..Q ~ ( ~ ~ ' H A H M M z y r r s p r c r j j z j v M M G _ P F F F G G D G J =.",
"C.n.n.n.p.#.X.O.O.X.Q / A A N m m g m d Z m A ) X.A H A A C A A M M s c s e e r p r 0 p 0 r r r 9 z z v F D G D v b D P L G D I ",
"G.N.N.n.p.#.#.#.X...Q ) R A A A N m m m A m R Q ) A A C V m m C m m z z z y e y y r p p 9 r r r 7 j z z D B J F D J P $.*.$.I -.",
"J.C.n.a.p.q.q.r.#.......Q Z A A A A Z m C Z Q Q ) C A A C A C S M m m m m y y e y y p z 9 j j r 7 p z j M J &.L F %.*.*.*.*.&.6.",
"J.J.N.n.a.a.i.q.#.O.....R Z C N Z R m g Z Z R Q / A R K A Q R A A A m m M s s p y y y z r p z r e z M z J K [ G G $.-.>.3.d.s.x.",
"J.P.C.n.v.a.<.9.r.#.O...R T A A A S m Z N m A C Q R Q Q A Q Q Q A A C m m s s s z y i z y p z e e c D v D D L G F P P $.*.&.-.s.",
"J.I.J.n.n.p.9.i.r.O.X. .R R Z R R T A A m g A A R K Q A Q / K A A C C c c p s p z s p p y s p r r z m v v c B D D L K J [ P G %.",
"<.u.<...} / Q ~ Q C M m s z s s y e e e e e e e e e e e e a a i i r e 5 4 < < < 1 2 2 , , , : , 2 7 9 p j j z l z M M v v l x l ",
"Y.Y.J.J.G.C.n.n.b.a.p.p.O.O.X.X.../ R Q / ) ] ) ..] ) ) { o.} ) ..} A Z C m M m m m C C M c z c M H K &.*.:.:.>.:.t.d.>.d.d.>.s.",
"Y.Y.I.I.P.J.B.b.p.a.p.i.X. . . .] R T Y R / ] ]  .........O.) Q } ~ C m Z m m g m p z M m c s c C H _ _ *.:.>.:.*.4.d.3.d.6.-.6.",
"Y.Y.Y.U.L.J.V.b.v.n.n.p.@.X. .W  .R Z Z R /  .X.X.+.<.9.<.r...) Q / A Z N Z m N m z m A C C m A A H &.&.:.>.e.u.3.*.d.g.z.f.s.s.",
"Y.Y.Y.Y.I.P.C.B.b.b.v.i. . .W  . .] T R ] ) X.q.#.q.+.w.e.u.O.) ..o.) Q K A m C A m m C A A V H M C H K | &.d.7.3.>.z.c.z.g.g.z.",
"Y.Y.U.U.P.J.V.V.v.b.n.i.r.r.#.@.#.@. . . ...#.i.#.w.q.q.w.r...} <.O...O./ ) A A Q C m A A M M _ _ _ K K K &.4.*.d.4.d.m.z.z.z.x.",
"Y.I.I.P.P.P.J.J.b.n.N.a.i.#.#.@.p.#.]  . .+.p.p.9.O.<.q.<...O.O.9.O.) O.) ) Q S H A A K m m C | :.| _ | :.:.3.t.d.3.e.g.S.z.z.g.",
"Y.I.K.P.P.I.J.J.n.n.n.b.r.r.#.@.q.q. .]  .#.p.r.#.+.O.<.<.u.w.X.+.O.X.O.Q Q A A Q ~ H K m c V H _ | _ | 4.4.4.e.d.e.d.z.z.d.d.d.",
"h.e.r.r.e.w.w.o.} ( ( ) A C C m m m m a s g m m c m c c M V m s m m d d a a e e y i r e 9 e r r j z c c M v M C D D D G D v D F ",
"K.J.C.C.J.J.C.k.n.k.p.a.p.q.r. . .@. . .O.#.9.w.9.q.9.+.9.r.w.9.+.) ..X.....) Q _ ' ~ H A H _ | | :.| &.:.u.d.h.e.u.3.d.3.>.d.g.",
"I.I.J.Z.J.P.C.n.n.v.#.i.#.#.q.W R / ]  ... .r.r.q.9.q.9.#.r.r.q.9.) .. .Q Q _ A H ~ H C m M K _ K _ _ _ | u.e.j.j.d.e.d.d.>.d.g.",
"I.I.C.A.B.J.N.v.n.i.q.r.X.X.#.W R R T R Q / r.w.O.q.q.9.q.q.+.9.9.) ) ) / ( K M A A H A C H K _ K K K C _ 4.2.j.d.w.4.z.d.*.3.d.",
"I.I.J.J.B.B.p.p.p.#.q.X.X...X.A A A R ] R / +.#.O.9.9.9.y.q.q.y.q...) ) Q S C m C H H m M H K H H _ K J | 4.w.h.u.w.d.z.s.%.3.3.",
"I.U.P.J.v.b.q.p.i.q.q. .#.#.9.Z Z R /  ./ ] X.#.#.9.#.q.r.q.r.q.9.....R R Q A A C A H M M K K H K K L L &.d.>.e.e.e.e.g.d.*.7.3.",
"I.I.P.J.V.C.n.n.b.i.i.] #.O.X.R R  . .@.]  .q.9. .X.X.q.r.q.y.9.9.) ..A / Q C C m m C A M K K M H | K L :.h.4.4.d.d.4.3.3.3.d.d.",
"U.I.P.J.J.C.N.M.b.i.i.@.@.X. .X.]  .#.#. .X.i.i.O.q.X.r.q.q.y.r.u.o...S ) ..C m m M A C c C C M K &.H L e.d.e.e.j.u.e.d.d.d.d.j.",
"u.u.w.w.w.<.} ) Q S A Z m m m m s m m g g g m C m m m V m V V V V c c s s c i 9 7 y i 9 4 e i p z x x x C F C v K H D J G F G G ",
"G.V.F.V.n.k.k.k.u.e.0.w.w.<.} o...} ....{ / X.9.O.X.+.<.o.+.w.<.<.<.<.} ( ) ( H A K _ K V K ( ( | :.:.2.4.:.e.4.u.e.u.h.j.j.d.d.",
"J.C.G.V.N.M.a.p.q.#.q.i.O./ R  .R ]  .X. .W X.a.q.9.q.r.#.r.a.q.9.u.q. .Q Q ) ( K H ( } m } :...| 2.:.w.k.d.k.k.m.k.m.S.G.H.S.S.",
"G.V.M.M.n.a.p.p.i.@.@.#.W Y Y  .Z R / / /  .+.p.+.q.r.9.q.p.n.p.r.p.q.X.A Q Q } K K Q ..C o.2.:.| 0.4.u.m.m.m.N.F.S.m.H.H.H.S.S.",
"C.G.V.M.n.i.i.i.i.@.@. .Y Z g Y h Z Z Z T / O.r.{ q.r.9.q.q.a.p.w.p.r.o./ ) Q ..) } ) O.) o.0.2.<.u.p.k.S.m.m.F.H.S.m.G.S.H.S.S.",
"J.C.n.a.p.#.q.#.@. . .Y Z N f N h T h N T R ..#./ +.X.X.O.X.p.p...#.9...Q ..O.O...~ ..O...:.0.w.e.u.m.m.S.N.m.G.G.S.S.H.S.S.S.S.",
"C.B.a.y.q.#.#.@.Z Y W h g N a g N N N N Z R ..+.X.X. . ...O.p.a.O.O.O.) ) ......o...+.9...<.<.w.e.p.m.m.S.F.S.F.G.F.F.H.H.H.H.D.",
"V.V.n.i.@. .#. .R W A f f g w g g a m g Z Z Q ..) )  .] O.O.r.p.9...O.) ) O...O.o...q.9...0.e.e.u.k.z.S.G.S.S.S.H.H.S.H.H.S.H.H.",
"w.o...R N m g a a s w 4 5 2 > 4 2 > 2 < q e e a e a s s M m M A V d m s m M s c s z M m c V A H K _ &.4.4.&.4.>.4.e.4.d.7.d.d.d.",
"r.q.9.../ Q A A Z Z m s s a e a s a e e a s s m s c V m H H K K H m C K K K H A C K _ H C _ | :.:.:.4.d.h.d.j.d.z.z.g.g.g.g.g.z.",
"i.i.#. ./ A Z Z f g s t e q = t s y a e s s s V m m C m A ) ( K Q V A Q A C m m C V H ~ H o.o.| 2.w.4.z.N.z.z.m.F.H.H.D.S.S.H.S.",
" . ./ / Z g g N a w t 4 3 3 * w t t e 5 e e e m m s m m m A m M C m m C m z a e c s M A H _ H H L 2.:.u.j.e.h.h.S.S.S.S.S.z.S.z.",
"R Z T / s w g m t 1 4 < < > % 5 t t e 2 2 e a m m m m V m m s m m s s m m s e 9 a e c M m D M C C _ K &.d.u.4.d.S.S.z.z.d.>.f.S.",
"Z N Z A s 3 w a 4 = > < > > $ > 5 5 e < > e i m a m m m m m s c s e i a p i 9 e y y c m z c c M M C K K u.e._ :.g.d.d.d.>.>.3.z.",
"A g m s a 3 t w 2 % = > > & $ & < > 5 > > e e a e m f m m d s s a e e e i r 7 9 e r p p r r c C z z M H 4.&._ _ >.*.*.3.6.>.-.g.",
"R s f t t 4 w 3 3 % % & > $ O $ < % 2 < < e e e i s m m a s e s a e 4 e 9 4 6 7 9 7 r p r r j M j r v K :.$.L _ _ P $.d.3.*.I s.",
"e 1 5 > > & & & $ X o o O X X X O X # O $ ; > ; 1 1 4 4 1 4 1 4 1 ; ; , , - - - ; ; : 2 , : , 7 6 2 0 j D z p j v v v G F l l b ",
"e e e e e 5 1 2 1 > ; % % % # O O O % # % ; > > 2 4 2 9 9 7 9 4 7 4 6 6 7 6 , : 2 , 6 7 7 6 7 0 0 0 j l v v l v v D v D F v n F ",
"m s i e 5 < < 1 > & $ + o # O O % @ < > 1 4 4 2 9 9 e z s 9 p 9 r 9 9 7 7 2 2 : 7 6 7 7 6 7 8 0 j j 0 v H G D F D G G I %.J v G ",
"e i 5 2 > > & & $ O O O . O O O # O ; > > < 1 < 7 2 e 9 e 4 r 7 9 7 2 2 , , : - , , , , ; 6 8 8 0 8 8 z D v l D D J n G G D l b ",
"e e < > % & $ $ O o X X   X X X O O % > % > > > 7 7 e < 7 7 9 9 2 2 , , - , ; - , , , : ; 6 0 0 0 0 0 z x v z D J F l n n n j j "
};
