/* XPM */
static char *_0142aa8aca64af8e9958613801e77cfp7cG5LU7sM5plSWj[] = {
/* columns rows colors chars-per-pixel */
"64 64 186 2 ",
"   c #1B140E",
".  c #1D1610",
"X  c #24150E",
"o  c #28170F",
"O  c #211611",
"+  c #291710",
"@  c #251913",
"#  c #2B1D15",
"$  c #2E1F1A",
"%  c #321E16",
"&  c #301E19",
"*  c #2F2017",
"=  c #2E2118",
"-  c #342116",
";  c #392416",
":  c #34231B",
">  c #3A261C",
",  c #36291E",
"<  c #3C291D",
"1  c #322520",
"2  c #392722",
"3  c #372821",
"4  c #3D2C22",
"5  c #3F3027",
"6  c #43261C",
"7  c #482719",
"8  c #432B1E",
"9  c #4B2C1D",
"0  c #522E1D",
"q  c #4C311E",
"w  c #56301E",
"e  c #432E22",
"r  c #4A2E22",
"t  c #522E23",
"y  c #453224",
"u  c #4C3325",
"i  c #4D3927",
"p  c #453429",
"a  c #4C362A",
"s  c #4D392B",
"d  c #533425",
"f  c #5A3524",
"g  c #553926",
"h  c #5C3A26",
"j  c #52362A",
"k  c #5B3629",
"l  c #543B2B",
"z  c #5C3C2B",
"x  c #4F3C30",
"c  c #543C32",
"v  c #5A3D30",
"b  c #633C26",
"n  c #683D27",
"m  c #623D2B",
"M  c #693F2A",
"N  c #643E30",
"B  c #56402F",
"V  c #5D412C",
"C  c #574231",
"Z  c #5C4432",
"A  c #5E4836",
"S  c #5C4738",
"D  c #5D4A39",
"F  c #64422C",
"G  c #6B442D",
"H  c #644A2F",
"J  c #6E492F",
"K  c #71472B",
"L  c #744A2F",
"P  c #794C2F",
"I  c #644532",
"U  c #6A4632",
"Y  c #654A34",
"T  c #6C4B34",
"R  c #624C3A",
"E  c #6D4E39",
"W  c #714731",
"Q  c #734C34",
"!  c #794E34",
"~  c #734E39",
"^  c #794D39",
"/  c #6E5135",
"(  c #66523F",
")  c #6D513B",
"_  c #745236",
"`  c #7B5335",
"'  c #7E5937",
"]  c #74533B",
"[  c #7B553B",
"{  c #76593E",
"}  c #7C5A3D",
"|  c #6E5641",
" . c #6D5843",
".. c #735741",
"X. c #7B5740",
"o. c #755A42",
"O. c #7C5C42",
"+. c #7E6044",
"@. c #7D6249",
"#. c #815635",
"$. c #835936",
"%. c #81563A",
"&. c #835B3C",
"*. c #8A5E3B",
"=. c #85603E",
"-. c #8B623D",
";. c #91663E",
":. c #93683F",
">. c #835D41",
",. c #895E41",
"<. c #866142",
"1. c #846244",
"2. c #8A6242",
"3. c #8E6742",
"4. c #8B6444",
"5. c #8F6943",
"6. c #8C6945",
"7. c #846449",
"8. c #8B6649",
"9. c #86694B",
"0. c #8C6A4B",
"q. c #916642",
"w. c #936A45",
"e. c #976E45",
"r. c #996D45",
"t. c #926649",
"y. c #936C4B",
"u. c #946F4D",
"i. c #996E49",
"p. c #8F704F",
"a. c #9D7246",
"s. c #95714D",
"d. c #94714E",
"f. c #9C734C",
"g. c #9B794E",
"h. c #8C6D52",
"j. c #926E51",
"k. c #8E7151",
"l. c #947353",
"z. c #9B7553",
"x. c #9D7955",
"c. c #94765A",
"v. c #9B7659",
"b. c #977B5E",
"n. c #9D7B5B",
"m. c #A1764D",
"M. c #A3794D",
"N. c #A17751",
"B. c #A37B54",
"V. c #A97D53",
"C. c #A37E5B",
"Z. c #A87F59",
"A. c #9F7F60",
"S. c #A37F60",
"D. c #AB8256",
"F. c #A5815D",
"G. c #AB845C",
"H. c #AE895F",
"J. c #B1875A",
"K. c #B28A5E",
"L. c #A48362",
"P. c #AA8662",
"I. c #AD8964",
"U. c #A78A69",
"Y. c #AC8B6A",
"T. c #B28D64",
"R. c #B28F69",
"E. c #B59166",
"W. c #BA9265",
"Q. c #BF9867",
"!. c #B4926B",
"~. c #BA956B",
"^. c #B79C6A",
"/. c #BD996D",
"(. c #AE8F70",
"). c #B59572",
"_. c #B89673",
"`. c #B69873",
"'. c #BB9A74",
"]. c #BA9B79",
"[. c #C19B6D",
"{. c #C29E73",
"}. c #C5A174",
"|. c #C4A37A",
" X c #CAAA7D",
".X c #CBAC81",
/* pixels */
"6 9 d d 9 6 7 9 w h h h h n G T _ T G J F F J Q J F m G _ ` W ` ` $.q.2.<.} O.T F z e > 8 e : # @ @ # # - < 8 > > : % > 8 8 u i ",
"9 f h h f 9 0 9 f b b L G b G J Q ' ` ! ` ' 5.-.` $.` ` _ 2.$.Q Q Q [ &.<.} 6.4.' Q Q U W U l p a 4 e d k m m h m k r r u r u d ",
"f h h h h f 0 0 f b F Q L G J Q ' &.` ` ` $.5.&.` -.$.-.*.y.3.$.-.! ` } 2.<.s.s.4.' ! ` ` T I j l a e 2 u k m m I z u r r r d z ",
"F G F m f b w f h F G #.#.P Q ` *.3.#.' $.-.f.-.$.;.a.B.3.>._ [ u.! %.<.s.u.L.n.8.&.[ [ ` [ ! T ~ Z a p p k I U T I k d d u k I ",
"G Q Q T m L b w f K ` *.&.$.#.-.e.g.e.;.w.e.f.-.-.e.G.T.M.w.T U 1.[ ! *.w.u.F.x.w.2.&.%.` %.} _ &.Q k z a a z z Q T z d d d z Y ",
"_ _ ` _ m L b 0 f G #.-.-.-.-.e.M.M.a.m.M.M.M.:.:.M.E.W.K.D.>.E Q >.! $.w.y.z.s.y.w.,.>.[ } >.} 1.[ ! I j p p e g d f d d d V Y ",
"F J T T z f b 9 7 w G ` $.$.*.;.a.M.m.a.M.D.D.M.;.e.D.W.W.W.G.X.I ! %.&.*.2.y.s.s.u.y.w.4.4.6.2.6.6.2.[ ! z 2 1 3 % > 8 f z I F ",
"# - - - - @ # o X o % ; < 8 q q g V V V V V H V q q V / / { o.l e 8 d g h V F F F I Y F V I I T T T _ _ T z : & $ + + % 9 g V l ",
"8 8 r u l Z Z l i l l l V V I B l Y R A V l l Z B l C C B s s s p s p 4 y y y y p y , , , , , : , , , : = # # @ .             . ",
"f h F T } 1.9.>.} <.4.s.y.w.s.w.>.B.U.F.z.s.w.z.x.F.F.I.I.I.P.C.z.C.F.C.F.F.F.L.n.l.O.7.8.l.7.O.0.0.7.1.+.O.+.O.) T Y Y Z l B B ",
"u u f F / T O.} O.1.4.s.g.5.3.6.2.0.U.U.z.s.u.B.P.!.P.z.P.!.!.!.P.I.'.!.).).!.Y.F.F.0.8.u.F.b.8.u.1.1.6.6.6.6.6.<.' _ } T I Y ) ",
"> 6 8 d g g T _ } } ' &.3.&.<.1.1.O.C.L.u.w.y.x.F.I.x.w.C._.!.!.U.U.).).].).!.L.F.U.n.7.l.z.x.u.0.1.O.>.O.4.1.1.} _ _ _ _ ) E T ",
"h z f m F m G J Q ' ' _ T F I U F F <.O.Y T [ 6.6.4.<.} 7.9.j.6.2.u.x.G.R.T.I.I.I.I.x.~ 2.6.6.<.>.1.' ! ` <.6.9.} { _ _ _ { / T ",
"z F m F G F G J _ <.&.$.W G ` ` k Q *.` W W [ *.&.&.-.*.$.[ %.q.q.f.B.D.G.T.R.!.R.G.] _ w.2.3.2.<.&.` _ ' w.s.s.1.} _ { } ' _ T ",
"h F m F U G T Q ' 6.&.$.L L #.W f ` 3.*.%.$.2.2.e.a.f.a.r.f.q.i.i.B.D.D.F.G.I.R.G.z.Y 2.y.3.q.2.2.<.[ ' $.3.s.s.&.} } } } } T Q ",
"h m m F G G J Q &.&.$.' Q ! $.Q J ` w.3.*.3.3.2.w.f.T.V.M.B.i.a.y.f.V.B.B.B.x.F.x.x.C.s.y.&.*.&.>.4.&.$.*.s.y.<.>.&.&.>.} } { T ",
"d h h m h h n J } Q P J K ! $.W J Q *.$.$.$.$.*.3.f.G.m.a.i.2.2.2.2.w.q.w.w.q.2.6.B.C.s.y.&.&.&.>.6.&.` $.w.w.&.[ [ &.} ' ' _ I ",
"@ @ @ # # # - , , , < < e y u y y y y y e e i l l l l i i i u y e 8 8 y u u i u u l l y 8 8 < 8 8 u 8 > 8 u u y e e e e y e e > ",
": , < l z Y T Y T ) { _ _ _ { +.>.1.O.] a s O.>.O.O.O.7.9.7.@.@.o.o...) | | ..] ) ....( A A A A C l C l l l u u y u u y y e e y ",
"> u r F _ &.=.` &.*.3.$.#.$.*.w.w.e.q.*.M a >.;.w.f.m.m.m.B.B.m.N.D.V.V.V.V.Z.V.B.N.i.,.~ ~ 2.y.6.2.u.6.>.<.[ ` ! Q _ ! T T T T ",
"< r f Q <.1.4.*.6.-.q.-.;.a.r.f.B.B.f.r.! c 1.M.V.D.G.D.D.K.W.J.T.T.T.R.W.T.T.T.K.Z.V.t.} ~ ,.4.u.s.x.s.y.w.6.>.&.&.&.&.>.' T z ",
"e % 8 T } 1.3.*.w.q.w.w.e.f.B.G.I.H.B.w.&.I >.J.T.W.W.W.T./.{.W.W.T.T.W.{.R.R.T.R.H.D.B.Z.8.8.>.z.B.x.z.a.w.6.2.2.>.&.>.6.} _ Q ",
"g 8 9 h } &.2.2.6.w.q.f.a.f.f.V.H.D.B.B.B.E ] J.W.[.Q.~.W.{.~.W.~.W.W.~././.~.W.!.R.H.H.P.B.z.C.P.F.Z.x.x.s.w.6.6.4.>.4.0.} ' { ",
"T f f G =.6.6.w.w.-.#.;.a.M.B.B.m.f.w.w.f.>.] D.W.{.}.}.[.}.[.W./.{./.{.{.{.|..X|.W.K.I.G.H.Z.P.T.I.G.F.G.F.z.y.y.y.6.u.u.>.} } ",
"_ h m _ >.6.6.s.w.&.#.;.f.f.f.f.f.C.C.Z.B.i.&.B.W.[. X}.[.}.}././. X{.[.{./.|.|.|.W.K.D.G.G.H.G.G.G.Z.Z.G.F.y.2.6.6.4.6.6.O.' _ ",
"_ G G _ ' *.6.y.q.-.q.a.a.a.f.i.s.x.F.P.D.B.f.V.W./..X X[.[.}.[.W.{.{.W./.T.H.R.!.I.J.y.z.G.P.G.D.G.Z.C.B.z.>.} } >.>.1.8.>.} ' ",
"u q 9 u u g V V h V F F H T / T Y T _ ] _ T ) } 1.0.c.b.8.0.c.0.1.8.c.4.8.4.>.>.8.&.1.Y I } 4.1.4.s.4.>.>.1.O.+.O.O.T T ) Y z z ",
": , > : > e u e 8 e y e 4 e a u u l a u a j u j l C S R A R R c c C x S D C C D C p u u e a a l C C C C a i a p y e 4 4 2 : - : ",
"u d f z m T _ ` ` ! Q W U Q Q Q ` ` ^ [ >.>.,.t.t.t.t.C.C.C.z.0.h.j.y.n.C.C.v.v.j.>.%.[ ^ [ 2.>.u.j.z.l.>.X.[ Q T U U E E I z Y ",
"z I U T Q } 1.<.<.&.[ ! Q ` ! ` &.,.2.8.z.v.z.C.Z.F.Z.R.~.~.!./.!.R.I.!.)._._.).).z.0.y.y.w.z.z.F.F.F.F.u.4.>.O.} ] } 1.1.Q U T ",
"z F F I U Y _ ' ` ` ! ! ! ! ` ! Q } 6.y.x.x.x.B.Z.Z.G.W.T./.~.^.E.l.o.R.P.!._.].R.u.) O.,.>.2.u.z.l.x.z.0.1.>.} } _ } >.Q F z I ",
"6 r 6 6 r t d f m G M m M M G M k N Q ` &.&.&.&.>.,.l.x.u.G.C.x.g.Z l y.y.x.L.P.P.y.R ] ^ ^ } 1.} >.8.h.>._ Q Q Y Y } _ U h d k ",
"8 r 6 6 t f d t t k m m m m m m j v U U T ~ ~ ~ [ >.u.8.>.8.v.n.v.) O.w.8.j.C.z.z.z.8.>.[ } O.>.I ~ 0.h.O.E m z k z I z V k u r ",
"< > % % 6 h m m h d d u f f d e e p z g j j V z a j I U T _ >.7.O.) E Y T ..( Y ) o.7.I g z Z Z z I ) o.R u > : $ - > 4 e e > : ",
"u 9 8 6 e f z F z k u e r f d e u ..>.~ U m U U T T ~ ~ ~ U T X.X.} } &.} ` O.O.~ ] E I F I I I T T ] O...Y I z g z z j u u u d ",
"r 8 8 9 f z F F h d f h h m m m k U Y N N N U Q Q } %.8.w.>.>.u.4.>.2.t.y.j.z.l.>.>.} %.%.>.} ` } } 1.l.h.X.} ` Q U U m k k k k ",
"# # # # - - > , < < < > < > < < > 4 - : < e e y a l l V V l l Z A C B l l C Z Z l l y a a i u e y u i l l i i u u e e e e < < < ",
"l z Z Y V g V T ] T Y Y ) { o.E _ 9.7.O.7.0.7.0.l.0.8.0.0.7.8.u.L.n.l.h.h.h.h.0.0.l.c.0.] E ..E Y E O.O.o.O...o.o.Y I I ) V I I ",
"F T _ } ' J Q &.' <.[ <.s.z.L.z.l.C.C.n.F.P.U.G.I.P.B.F.Z.F.Z.Z.R.Y.P.).U.S.z.l.n.P.C.l.w.8.8.~ ~ u.z.l.0.1.l.l.0.1.1.9.1.{ } ] ",
"T T T _ F h h T _ } U ' 0.0.k.0.7.l.z.z.z.P.F.B.G.I.f.a.s.z.C.U.L.c.c.c.c.b.h.7.1.O.+.+.7.O.] U E h.h.7.h.j.0.1.9.1.} +.] ] ] ) ",
"g g d g q d 0 d F z u d g V T 1.1.u.l.0.l.b.0.1.1.6.*.' 3.y.x.z.z.n.L.P.R.L.h.h.7.7.c.b.z.>.>.>.1.l.U.F.C.v.8...O.) Z T Y I V z ",
"J Q ` ' ` n t d G W ! %.*.-.w.a.B.C.z.8.6.l.z.C.I.D.a.q.2.f.T.K.H.T.!.~.'.!.C.P.P.I.I.C.u.y.y.6.u.B.C.C.C.L.z.8.8.O.} } } Q I T ",
"' =.5.-.$.G m h L #.-.q.r.f.f.M.D.G.B.a.i.m.B.D.T.K.m.w.,.i.J.K.G.R.R.!.].).P.L.P.P.R.I.V.V.B.w.2.V.P.L.P.U.L.x.n.8.>.>.>.} _ } ",
"` ' &.&.$.L Q ! P #.;.:.w.a.a.f.B.V.M.m.r.f.B.G.G.G.m.M.V.D.J.K.G.K.T.~.].).I.R.R.!.~.R.I.Z.V.a.&.x.x.L.Y.U.F.x.x.6.4.>.1.>.{ } ",
"_ ` ' ' $.` ` ` &.*.:.a.f.a.f.m.B.B.V.M.f.m.V.J.K.D.V.J.K.W.K./.Q.Q./.[.'.].!.R.R.R.!.R.~.V.m.N.` ~ ] C.I.z.u.z.s.2.2.>.>.>.} } ",
"h F F F F F F F F G G G J _ _ ` _ ' ' ` ' &.=.3.<.<.$.2.2.3.=.2.<.' ' } 1.7.O.O.} O.O.7.1._ Q { T u l Y ] z k z I k g g z z g g ",
": : , y y y y u s i i i i l C Z B C A A A A B C ( |  .( R R Z Z A R R R R D A A D R R C l C C C i y y p p s s p y 4 4 y 4 5 4 4 ",
"z I T { } O.O.9.k.1.1.1.8.0.l.u.6.u.l.l.j.0.} 1.l.F.C.z.z.z.n.C.L.L.U.P.U.b.l.l.n.U.A.l.O.E 7.n.l.1.7.0.h.h.7.O.O.] o.+.) Y Z I ",
"F T { { } 1.1.p.c.0.0.1.6.l.l.l.x.z.x.z.z.u.3.w.x.I.P.P.C.C.U.U.P.U.Y.).(.L.n.L.U.Y.U.c.] l E u.l.j.0.0.0.7.7.7.O.O.O.+.] E I Y ",
"l V I Y ) ] { } O.} } } >.0.0.1.8.l.l.1.1.T I Y O.0.l.l.l.n.U.C.n.n.L.U.L.c.l.l.n.L.L.1.] U } 2.j.0.7.>.7.1.] O.] E ] o.{ ] T Y ",
"< < 8 y e e u d Z Z z g l g g l V Z V V z r d r U >.1.] ] O.7.] ] o.@.+.o...o.o.7.h.9.) I I _ 0.0.7.E I Y I l i l l B A C l l i ",
"u h z f r r k T T I U F F m Q } } ` &.y.$.` _ h %.8.} T I Y z m I E O.8.0.l.l.l.l.0.1.>.Q u v ] Y Z l a a y 4 e e i u l g V z g ",
"9 h F k u d m ` _ ` ' Q W #.-.w.w.-.w.V.q.[ 6.q.w.M.M.r.$.&.! ! &.,.x.G.Z.P.D.H.T.D.B.f.f.~ ! 6.w.6.2.>.&.~ T ~ Q } ` _ } O.} _ ",
"d d F F F Q ` ` } $.-.-.$.-.w.x.g.3.e.B.w.#.*.f.m.m.M.f.w.q.i.i.r.i.V.H.H.T.H.K.K.D.m.m.m.m.-.*.w.y.6.2.,.} [ [ ` } } } } } >.} ",
"f h F F G Q _ ` ' ' &.&.#.$.-.w.e.q.q.a.q.#.! *.f.m.f.r.m.r.i.r.q.q.r.f.f.B.m.m.m.f.i.i.r.r.q.*.*.q.*.*.&.[ ` [ ` [ } ` ~ ~ _ Q ",
"> 8 r 9 u u u d q 9 9 9 9 9 d d d d f z f u 6 r V T F F F F F F h h h h h V F F F V z h z F z h z z V z z d u u y e e < > < > < ",
"O @ # = = * > : : % # : > > , e e e u a u i i u l Z Z C l p R ) ) ) ..) ) Y E ) ] o.] / _ T Y Y ] ] T z 5 a Z C Z Z Z V l l l l ",
"f V F F F m G G G b M J Q W Q ! ' ! ! #.#.#.$.%.*.w.w.q.$.[ y.i.f.B.B.V.G.G.B.B.B.B.x.f.B.s.w.s.s.s.q.Q 3 j } } >.<.>.} } O.] _ ",
"F Q _ Q J J J J h 6 h L ' %.$.&.-.*.-.w.y.w.w.w.s.z.x.s.s.u.x.M.V.D.D.G.H.H.G.Z.C.Z.F.C.C.z.s.C.x.w.6.~ I Q &.>.6.6.>.{ _ ] E Y ",
"h F T _ T _ _ _ F : u ' 4.y.6.2.%.` %.2.&.%.&.4.6.z.F.F.F.G.D.V.B.T.P.P.I.Y.R.I.Y.Y.P.z.z.l.b.h.O.} O.O.6.2.>.1.h.0.O.} O.7.9.9.",
"k F T { } } ' } Q J [ 2.y.s.w.u.2.<.>.8.6.w.i.C.G.P.I.!.I.P.Z.Z.z.`.].].'.!.Y.U.F.L.n.z.b.C.F.j.>.0.0.>.4.1.8.7.l.1.O.} ] O.@.@.",
"{ } } O.} >.1.1.} [ 2.w.s.s.l.z.x.x.C.F.D.G.G.I.I.G.P.R.R.R.R.!.!._._.!.!.R.U.L.C.S.L.L.U.P.F.F.z.s.s.u.>.u.u.1.1.7.8.1.o.O.o.o.",
"_ { } } } } 1.4.<.*.2.y.z.s.z.z.z.B.C.F.G.H.G.I.T.I.T.W.R.W.!.R.!./.'.'.'.'._.!.!.!.!.!.R.!.I.F.B.z.s.w.U T Y Y O.O.>.O.] ] ] ] ",
"T T _ } } } 1.<.<.=.3.w.y.s.s.s.s.x.C.F.G.H.G.H.H.K.T.W.W.!.~.W.T.T.T.W.W.I.I.D.D.G.G.Z.B.V.B.u.u.y.i.6.M < 1 u U Q ! Q _ _ T T "
};
