/* XPM */
static char *a2498cec79f348f98731ff2d96370726468dW3VDzEYQraXF[] = {
/* columns rows colors chars-per-pixel */
"64 64 191 2 ",
"   c #150F09",
".  c #1C150D",
"X  c #1F180F",
"o  c #1D1610",
"O  c #1C1B19",
"+  c #211A0F",
"@  c #231C15",
"#  c #251F19",
"$  c #272016",
"%  c #292217",
"&  c #27211C",
"*  c #2B241C",
"=  c #2F281E",
"-  c #31291E",
";  c #1E2223",
":  c #2C2621",
">  c #262827",
",  c #2E2822",
"<  c #232729",
"1  c #252A2C",
"2  c #292D2E",
"3  c #332C25",
"4  c #342E29",
"5  c #2D312F",
"6  c #373027",
"7  c #393126",
"8  c #37302B",
"9  c #3B342D",
"0  c #3E382E",
"q  c #292E31",
"w  c #2D3234",
"e  c #2F3639",
"r  c #2F383A",
"t  c #303536",
"y  c #3B3531",
"u  c #333837",
"i  c #3E3932",
"p  c #313739",
"a  c #343B3D",
"s  c #383D3F",
"d  c #423A2E",
"f  c #443D33",
"g  c #443E39",
"h  c #464036",
"j  c #4A4236",
"k  c #47413A",
"l  c #4D453A",
"z  c #4F493D",
"x  c #504737",
"c  c #504738",
"v  c #524A3D",
"b  c #363E41",
"n  c #393E41",
"m  c #374043",
"M  c #3B4345",
"N  c #3D4649",
"B  c #3F484B",
"V  c #4E4A42",
"C  c #404748",
"Z  c #424B4D",
"A  c #494E4E",
"S  c #554D42",
"D  c #584F42",
"F  c #534F4A",
"G  c #565145",
"H  c #5B5345",
"J  c #56524B",
"K  c #5C554A",
"L  c #5E594E",
"P  c #444E51",
"I  c #484F51",
"U  c #465154",
"Y  c #495356",
"T  c #475558",
"R  c #4A5659",
"E  c #4D5A5D",
"W  c #5A5751",
"Q  c #5D5A52",
"!  c #515C5E",
"~  c #615747",
"^  c #635847",
"/  c #615749",
"(  c #645A4C",
")  c #695D4D",
"_  c #635D52",
"`  c #685F51",
"'  c #615F5A",
"]  c #6A604F",
"[  c #666155",
"{  c #666156",
"}  c #6C6354",
"|  c #65625B",
" . c #6C665A",
".. c #6E695C",
"X. c #716655",
"o. c #746857",
"O. c #786B57",
"+. c #706758",
"@. c #746B5B",
"#. c #796E5D",
"$. c #75705E",
"%. c #7B715E",
"&. c #4F5D61",
"*. c #525E62",
"=. c #4F6165",
"-. c #546265",
";. c #596366",
":. c #566569",
">. c #5A666A",
",. c #57696C",
"<. c #5B696E",
"1. c #5C6C71",
"2. c #5E7176",
"3. c #5F7279",
"4. c #696560",
"5. c #6E6A62",
"6. c #6D6A64",
"7. c #616A6E",
"8. c #746E61",
"9. c #716E65",
"0. c #786F60",
"q. c #706E69",
"w. c #767164",
"e. c #7B7363",
"r. c #767269",
"t. c #75726A",
"y. c #7C7669",
"u. c #7D786C",
"i. c #7E796D",
"p. c #626E72",
"a. c #637175",
"s. c #6B7577",
"d. c #647479",
"f. c #697679",
"g. c #6D7A7E",
"h. c #717877",
"j. c #7C7971",
"k. c #747D7C",
"l. c #80745F",
"z. c #817664",
"x. c #837966",
"c. c #8A7D66",
"v. c #847C6D",
"b. c #897E6D",
"n. c #847E72",
"m. c #887F70",
"M. c #817F79",
"N. c #87806F",
"B. c #8B816E",
"V. c #868173",
"C. c #8B8373",
"Z. c #8F8977",
"A. c #85847C",
"S. c #8D8679",
"D. c #8E897A",
"F. c #908775",
"G. c #918976",
"H. c #938C7B",
"J. c #96907E",
"K. c #99927E",
"L. c #6A7B80",
"P. c #717E83",
"I. c #6E8083",
"U. c #748283",
"Y. c #8D8C82",
"T. c #948F81",
"R. c #969182",
"E. c #9B9583",
"W. c #9E9986",
"Q. c #979488",
"!. c #9B9789",
"~. c #9E998A",
"^. c #9E9B90",
"/. c #A19783",
"(. c #A19A86",
"). c #A39C8B",
"_. c #A99E89",
"`. c #A39F91",
"'. c #A6A18E",
"]. c #A9A28E",
"[. c #A6A191",
"{. c #ABA493",
"}. c #AEA896",
"|. c #ACA698",
" X c #AEA999",
".X c #B1AA97",
"XX c #B2AD9B",
"oX c #B6B09F",
"OX c #B5AFA0",
"+X c #B6B1A1",
"@X c #B9B3A2",
/* pixels */
"  o @ @ o @ # o @ # # @ # & 3 : 4 i f V _ _ K Q J S K _ j.j.A.A.A.A.w.$.$.e.w.} { t._ S 0 9 f f 7 = % % $ @ @ X @ @ @ X . . .   ",
". @ # & & # & @ # & & & * : 3 4 g J V k Q 5.Q | t.J D _ 6.t.Y.q.| 6.{ L G K G { L J S H z h f k 0 3 * * * * * & % % & # @ @ @ . ",
"@ # & : : & & # & * : 3 3 3 8 8 f F J k W 4._ | 9.| Q W V J 6.M.n.y. ._ V J G } K V G G S l j h d 7 - * = = = * * % & # # # + . ",
"# # & 3 & @ : & # 3 9 9 8 3 f i i k Q V F J W J W | | J Q J J q.9.j.n.w._ { u.u...u.w.( S f j z j 0 3 - * * 3 3 3 3 , * # & @ . ",
"* * & 3 3 , 4 3 & 8 y 4 8 9 f g g l W ' J J L _ J F Q J J | W W Q Q u.u.@.G 5.9._ 8.t.| 9.Q G Q G j f f 7 4 4 y 9 y 4 , : , # @ ",
"8 9 i f k f 9 9 3 4 8 8 k D G G _ _ Q _ | 8.8.8.| _ | | Q | ' J { t.t.@.w...| w. ...t.V.u.8. .L v S S K D i 9 9 9 g f 4 4 , & # ",
"f f h l j l f f f h h v K K _ ` 8.9.8.8.w.u.v.v.y.| 6.5...t.t.y.D.R.D.D.Q.S.j.u.D.T.C.V.u.y.....{  ._ L L l f 9 9 9 f 8 4 : * # ",
"f f j l l l l v v S K L ( ( ` } .. .`  .n.V.S.T.R.A.t.t.n.Y.Q.[. X`.T.D.S.R.~.~.!.H.C.V.n.y.w.y.@.{ _ ( K G S l f 8 9 4 4 8 9 6 ",
"f f j v v v l v v v K K L ( } @.8.@.+.+.N.V.V.S.T.!.H.T.`.`.{.{.W.K.E.).E.W.W.E.R.E.T.D.V.v.u.y.w...{ L K S S G S l l j j f d 7 ",
"j f j v S S S v v S K K K ( } 8.w.0.+.w.S.G.H.R.H.R.R.R.!.W.).[.).K.H.J.K.K.H.R.W.E.H.G.C.v.V.V.y.0. .( ( K G G G G S v l j f 0 ",
"l l v S S G G D S G K K / } @.y.u.v.0.y.D.H.H.E.R.H.K.E.!.(.E.W.K.H.K.E.H.J.R.R.E.(.E.R.C.v.V.V.v.0.@.} ` _ K K G H D v l j f d ",
"l v S S v H / H K K _ ` `  .0.y.V.n.D.H.R.E.E.E.J.H.K.J.E.W.W.[.'.E.K.W.(.W.J.R.!.!.E.H.B.S.D.V.v.@.+.} } } / H G G D S v l f d ",
"S S G D G / ( / ( ` } } } @.e.u.C.V.R.E.H.H.E.E.E.E.].'.'.[.).{.{.(.(.(./.E.J.R.!.!.E.E.G.D.D.V.v.#.X. .} ` ( H H H G D S l j f ",
"D D G G H K ( ( ( ` }  . .w.w.v.V.C.R.R.E.W.W.J.E.(.[..X{.{.'.).{.).(.(.E.E.E.!.!.E.E.R.G.D.D.C.B.y.#.+.+. .( ~ / ~ H G v v c f ",
"G G K / / ( ` ` ( } } } +.w.y.@.v.G.T.R.).'.'.W.W.).'.}.}.{.{.].}.].'.].'.).!.).!.!.R.E.H.Z.D.S.S.v.w.#.#.+.( ( ~ ( / H G v l d ",
"H G / ( ( } } ` } } }  .@.0.v.e.v.G.H.R.W.(.).).).).}.}.}.}.}.{.].'.).].[.).).).).~.R.W.E.H.T.H.D.v.y.#.#.+.} ( ( ( ( / H v j f ",
"H H ( ( ` } } }  .` } +.#.w.y.v.V.G.E.!.!.(.E.W.W.'. X XXXXX X.X{.{.].{.{.(.E.(.[.).E.W.K.E.E.R.Z.V.v.y.y.#.X.} ) ( ) / K G l f ",
"/ K ( ( } } }  .+. .+.#.w.e.e.y.v.G.R.!.(.'.(.E.E.[.'. XXX@XXXXX{.[.].{.'.).W.E.!.).!.W.K.E.H.G.G.C.C.v.y.w.X.X.) ( ) ( ~ G c j ",
"` ( ~ ( } } }  . . .@.e.e.y.v.v.v.G.R.!.!.).).[.).{.[.XX+XoXoX@XoX+X.X{.{.].).E.W.(.).(.K.K.E.J.G.S.C.v.y.#.X.} ) ) ) ^ ~ H v l ",
"` ( ^ ( ` } } } (  .0.w.y.e.y.V.V.G.E.W.`.).).{.{.{.{.|.XX}..XXXXXXXXX.XXX X'.(.W.(.(.E.E.W.W.R.D.V.C.V.y.#.X.X.} ) ) ( ~ H v l ",
"( ( ( ( (  .} ` }  .e.y.v.v.v.C.F.G.E.W.).(.(.[.{.{.XXXX}.}.OX+X+XXX{.XX.X X[.).).`.).).).W.E.H.C.N.V.V.v.#.@.X.X.} ) / ~ H D l ",
"H ( ) ) `  . . .+.#.y.v.v.V.S.C.S.H.J.E.W.E.E.(.(.}.XXXX.X}.@X@XXXXXXX.X X X[.[.).|.{.).(.E.K.J.Z.v.v.C.V.y.%.o.o.} ) / ~ H G x ",
"H ( ) } +.@.+.X.+.w.v.v.v.n.V.C.V.H.H.K.).).W.E.E.[.}.{..XXXXX}..X+XXX X X X{.[.W.{.|.`.E.E.W.E.H.C.V.S.C.x.%.O.O.X.) ( / H G x ",
"( ( ( } #.#.+.} @.e.v.V.V.S.V.V.S.H.H.E.).).).).`.[.[.W.{..X{..XXX}.[. X|.{.[.).(.`.{.).!.(.W.J.G.D.V.C.v.e.z.%.#.o.} ) ( H G c ",
") ] ] } +.#.+.X.#.e.v.n.V.D.D.S.H.H.J.E.).{.).[.{. X{.'.[.{.XX@XXX).[.XX[.(.).).).).[.(.(.W.E.J.D.D.S.V.v.z.z.%.#.@.X.} ` / v x ",
"} } } } @.w.#.@.#.y.v.C.S.G.D.G.E.E.E.E.).).(.'.].[..X{.}.XX+XXXXX[.[.{.[.`.[.).).`.).).(.E.J.H.G.D.D.D.S.v.l.e.%.#.X. .} / G x ",
"} }  . .+.+.#.#.@.z.V.S.S.G.H.G.H.H.R.K.W.).(.(.).(.[.).).{..X+X@X{.[.[.{.[.!.H.E.(.[.).).E.H.J.G.D.G.G.F.c.z.e.z.e.@.X.} ( H v ",
"}  .}  .+.#.w.O.#.z.v.C.D.G.H.D.H.H.H.H.!.[.).).(.!.!.W.(.{..XOXXX{.}.{.).).R.H.H.!.[.).(.E.H.H.G.H.H.S.B.B.z.e.z.z.#.+.} ( / G ",
" . . .+.o.@.O.O.z.v.b.B.S.G.G.S.H.H.J.E.`.).!.).).(.(.).[..X.X.XXX{.{.{.[.).!.E.E.(.(.(.(.E.J.H.H.R.H.B.b.c.z.z.z.z.w.X.} ` H G ",
" .+. .+.X.@.@.%.z.v.b.B.S.D.G.G.H.K.E.!.).).W.!.E.E.[.[.{.XXXX{.{.{.[.{.).).W.E.W.).).(.E.W.J.G.G.G.H.F.b.c.c.x.x.y.w. .` ( H v ",
" .@.@.@.@.#.#.%.z.v.V.V.S.S.S.G.H.W.W.E.W.).W.(.).].[.[.].[.{..XXXXX{.].(.W.(.W.W.).!.(.(.E.K.G.H.H.H.G.G.B.x.z.z.e.#.X.} ( H c ",
" .+.@.@.@.%.e.z.v.m.S.S.V.D.D.G.K.W.E.J.W.).'.(.(.].].].{.].{.{..X.X{.[.).(.).).(.'.).).'.W.K.H.H.J.E.H.D.B.c.x.z.e.@.X.} ( H c ",
"} o.@.#.#.e.e.z.v.v.m.m.C.G.H.V.G.E.W.W.).).W.).).].[.].{.].).{.{.].'.{.].).[.).!.).).(.W.E.K.H.H.H.H.H.D.C.b.x.e.#.@.@.X.( H v ",
" . .@.@.O.%.e.x.b.n.v.v.V.G.H.G.G.W.E.E.(.(.W.).(.'.'.'.].{.{..X{.(.).].).).(.W.).[.(.K.K.W.E.J.J.H.R.T.H.F.B.x.z.e.#.@.} ( H v ",
"+.+.@.#.#.e.x.v.V.V.v.b.C.G.H.H.H.E.H.H./.E.(.(.(.).'.'.).{.}.{.{.].].{.).(.).W.(.(.).(.E.(.(.K.H.H.E.H.H.G.C.b.x.z.#.X.X.} / v ",
"@.@.$.%.w.v.v.v.V.v.B.B.S.G.H.H.K.E.H.H.E.E.W.(.].'.{.].).].].[.[.{.{.{.).).).).).(.(.(.K.K.W.E.H.G.R.H.D.F.B.b.b.z.w.@. .( H S ",
"#.#.%.w.e.v.v.n.n.v.V.B.C.F.J.H.K.E.E.K.E.W.E.(.(.'.(.(.)._.).[.[.{.{. X].].[.[.{.[.).(.W.(.(.E.K.H.E.H.D.S.B.B.v.x.e.#.+.( K S ",
"0.0.w.w.e.v.v.V.V.v.C.B.C.B.G.H.K.E.(.(.(.E.(.(./.).).(.(.].'.{.{.[.`.{.].).'.[.'.].).(.E.W./.K.K.H.T.G.G.D.V.v.v.x.y.#. .( / S ",
"| {  . ...w.t.y.n.j.u.n.V.n.V.S.D.T.E.E.R.J.E.W.W.E.W.).(.~.~.`.`.!.^.[.Q.R.T.R.R.Y.D.A.A.A.A.D.Y.Y.A.n.V.V.n.y.e.w.5...| _ J V ",
"Z Z Z A I Y R R ! *.R ! ;.;.;.>.>.p.k.k.s.h.h.h.k.g.U.U.U.I.U.P.g.d.f.f.a.p.1.<.p.1.<.<.<.>.:.-.;.:.:.;.-.-.! E E Y P Z N M s p ",
"Z M M A Z P U Y R R R R R E E ;.>.p.f.p.<.<.>.p.a.L.I.g.P.P.L.L.d.1.<.p.p.1.p.p.1.1.1.>.:.:.:.-.-.&.-.E R R Y Y U P B N M b a e ",
"C M M C Z P P Y R R Y R R E E *.;.7.p.7.p.p.>.a.a.d.g.g.P.P.g.d.3.2.1.d.p.p.p.p.p.,.<.>.:.:.>.:.=.-.*.R R E R Y Y Y B N M b a w ",
"M Z A C Z Z P Y Y R R R E R E *.*.;.<.p.p.<.>.p.p.p.a.f.s.f.d.1.2.d.1.<.p.p.<.d.d.<.>.>.>.>.;.*.&.*.R R R Y U Y Z P Z N M b a w ",
"M M A A C Z Y Y Y Y Y R R R E *.! ;.;.<.p.<.>.p.p.<.<.<.p.a.1.1.1.1.a.1.<.p.1.1.p.>.;.:.-.*.*.&.&.E T R R Y Y Y B P N M M b a w ",
"M s M A Z Z P P U U Y R Y R E *.E *.*.>.<.7.7.7.>.:.:.:.<.<.,.1.1.1.p.1.<.1.1.,.>.>.>.;.*.-.*.&.&.E Y T E R Y P B Z N M M b p w ",
"n M M A Z Z Z P P Y Y R R R E *.&.*.*.*.>.>.7.<.;.;.>.>.>.<.1.<.<.<.1.1.<.,.:.:.<.<.;.! ! *.*.E E R T T Y P P P N B N M b a p w ",
"n M M Z Z Z Z Z P Y U Y E E E *.*.&.*.E *.;.;.>.;.*.;.>.>.:.<.1.<.<.1.<.,.,.:.:.:.:.*.*.! E *.E E T R R P Z P P N N N m b a e w ",
"M M N Z B Z Z P Z P U U R *.E R E *.E E ;.;.>.>.>.;.;.:.;.:.,.,.1.1.1.,.-.:.:.-.-.-.-.-.*.E E E R T Y R Y P P Z Z N N m m s e q ",
"s M M B N Z Z P P P P Y R R E E E E E E -.;.>.>.>.;.;.>.-.-.-.:.1.1.:.:.:.:.<.:.-.-.-.-.&.&.E R R Y Y Y Y Y Z Z B B N M b a e q ",
"s b M N N N Z Z P U U E Y R R E R R E R R *.;.;.;.;.;.;.*.-.-.:.1.1.<.:.:.-.:.-.-.-.*.*.E E E R R Y Y Y P P Y P P P N b a p w w ",
"b s M M N N B Z Z Z P R Y Y Y R R R E Y E *.*.;.*.*.;.*.&.-.;.:.1.1.:.:.:.:.-.-.-.-.;.-.E R E E R T U P P Y Y P B P Z M a e w 2 ",
"s b b m N N N B Z Z Z P U U U R E Y Y Y Y *.*.E &.*.*.*.*.-.:.-.:.<.:.:.-.;.-.-.-.-.;.-.&.R E E R T Y P P P P N N N N b p e w 2 ",
"s b b b M N N N B Z Z Z P U Y Y Y Y U U Y Y ! ! E E E E &.-.:.-.:.:.-.;.-.-.;.*.;.-.*.E E R R R Y P Y Y P P Z N M M m a a e w 2 ",
"s a b b b M N M M B Z Z Z A Z U U Y Y U A Y R ! E E R E E *.-.;.*.-.-.-.*.-.-.*.;.! E E R R R T Y P P Z Z B N N M M M s b p w 2 ",
"e p a a s b M M M M B Z C M M P U U U P Z Y Y R E E R R E E *.*.E E &.&.&.&.E E E E Y R R E E Y P P Z B N N N N M M M s a p w 2 ",
"e e a s a s n M M M M M N N C P U U Y U P Y Y Y R E E R R E *.E E E E E &.&.R R R Y R R Y R &.P Z Z N N M N N N M m b a p e w q ",
"e p a p a a s n s M M N M M N Z P U U Y P Y Y Y Y R R R Y R E E R T R R R E R R Y U Y Y P R R P B B N N M N N M b b b a p w w 2 ",
"p a p t t p a s s n M M M M M C C Z P P P Z P U Y Y P U Y Y R Y Y Z Z U Y Y Y Y Y U P P Z P P B N M N M M M M M m a p p e w q 1 ",
"p t w t p p p p a b M M M M M N C N Z U P Z Z Z Z Z C Z P Y Y Y U Z C M Z P Z P Z A P Z N N M M M b m b b b M M b a e w w q 2 < ",
"w w w w e p t p u a b n s s s M N N N Z Z Z B Z Z C B Z Z P P Z Z C Z M B B B Z Z Z Z B N N b b m b m s s s b b a a e w q q 1 < ",
"2 2 2 w w w t t u u a s a s a n n M M M b N N N N B N N N Z B M M N M M M M M N B B N N N M s s b b s a p p a p p p w q 2 1 < < ",
"< < < 2 q q w 5 5 w e t t p p u u a n n s b M M M N M N M M M b M M M M M s M N N M m m b a p p p p p t w w u u t t w 1 1 1 < ; ",
"< < ; < 1 1 1 1 1 1 2 2 2 w w e t p p p p r p s s s a b n n s u u u u s a a s b M M s a p t e w w w w w w 2 t p w 2 1 1 < < ; ; ",
"< ; ; ; < < < > > > 1 2 1 2 5 w w e w w e e e w p p e p p u t w t t e t p p p a a a p e e w w w q q 2 2 2 2 2 2 1 1 < < < < ; O "
};
