/* XPM */
static char *a133de417950493892ef9cd95b0a94c8kAR7hF6OzRZ8vtMJ[] = {
/* columns rows colors chars-per-pixel */
"64 64 256 2 ",
"   c #185579",
".  c #194F71",
"X  c #235875",
"o  c #2B6779",
"O  c #1A5C88",
"+  c #245D85",
"@  c #1E6693",
"#  c #26658A",
"$  c #246B9D",
"%  c #266797",
"&  c #2B739A",
"*  c #34759D",
"=  c #387899",
"-  c #356F91",
";  c #1E6EA6",
":  c #2B6CA4",
">  c #276AA6",
",  c #2C75A7",
"<  c #3474A5",
"1  c #3B7CA5",
"2  c #3374AC",
"3  c #357BAC",
"4  c #3B7DAC",
"5  c #3779A6",
"6  c #2C79B6",
"7  c #3375B2",
"8  c #347CB3",
"9  c #347BBB",
"0  c #3A7DB6",
"q  c #346FAB",
"w  c #457B9A",
"e  c #447DA7",
"r  c #417EB4",
"t  c #2F7DC4",
"y  c #3582AD",
"u  c #3C82AD",
"i  c #3883A5",
"p  c #3C83B4",
"a  c #3B83BB",
"s  c #3986B8",
"d  c #3085AF",
"f  c #2E8098",
"g  c #49859C",
"h  c #4384AD",
"j  c #4D8BAD",
"k  c #4785A7",
"l  c #578BA9",
"z  c #4384B3",
"x  c #448BB4",
"c  c #4B8CB5",
"v  c #4385BB",
"b  c #458BBC",
"n  c #4B8CBB",
"m  c #4B85B6",
"M  c #528CB4",
"N  c #538EBB",
"B  c #568AB6",
"V  c #4C93B4",
"C  c #4B93BC",
"Z  c #4696BA",
"A  c #5394B5",
"S  c #5393BC",
"D  c #5B95BC",
"F  c #559ABD",
"G  c #5B9BBD",
"H  c #5997B4",
"J  c #5892AB",
"K  c #649ABA",
"L  c #6A99AE",
"P  c #5DA1BC",
"I  c #67A2BC",
"U  c #74A8BD",
"Y  c #3B84C3",
"T  c #3C8CCB",
"R  c #3987C4",
"E  c #3F93CA",
"W  c #3D8CD5",
"Q  c #3C91D1",
"!  c #438BC4",
"~  c #4B8CC2",
"^  c #4789C8",
"/  c #528EC6",
"(  c #4C93C4",
")  c #4394CC",
"_  c #4C94CA",
"`  c #4C9BCD",
"'  c #4896C6",
"]  c #5394C3",
"[  c #5996C2",
"{  c #549BC4",
"}  c #5B9CC3",
"|  c #5395CB",
" . c #549BCB",
".. c #5B9CCB",
"X. c #5A96CB",
"o. c #4B9BD4",
"O. c #4C9BDB",
"+. c #4895D6",
"@. c #5495D2",
"#. c #539BD3",
"$. c #5B9DD2",
"%. c #569DDA",
"&. c #4B8ED2",
"*. c #639CC3",
"=. c #639CC9",
"-. c #629ED4",
";. c #659CDD",
":. c #5DA2C4",
">. c #5CA3CC",
",. c #58A5CA",
"<. c #4CA2D8",
"1. c #54A2D4",
"2. c #5CA3D3",
"3. c #53A3DB",
"4. c #5BA3DB",
"5. c #5CA9DC",
"6. c #59AAD5",
"7. c #53A8D0",
"8. c #63A4C4",
"9. c #63A3CB",
"0. c #6AA5CB",
"q. c #65AACD",
"w. c #6CABCC",
"e. c #6BA7C5",
"r. c #75AAC8",
"t. c #6CB3CD",
"y. c #79B4CC",
"u. c #63A4D3",
"i. c #64ABD4",
"p. c #6BACD3",
"a. c #63A4DB",
"s. c #64AADB",
"d. c #6BACDB",
"f. c #6AA6D6",
"g. c #73ACD4",
"h. c #71AEDB",
"j. c #79AED9",
"k. c #6DB3D4",
"l. c #6CB3DC",
"z. c #66B3DA",
"x. c #73B3D4",
"c. c #7BB5D3",
"v. c #73B3DC",
"b. c #74BBDC",
"n. c #7BBBDC",
"m. c #7AB8D7",
"M. c #559DE3",
"N. c #53A3E3",
"B. c #5CABE4",
"V. c #5BA6E7",
"C. c #5DB1E7",
"Z. c #4FA4E5",
"A. c #65ACE3",
"S. c #6DAEE3",
"D. c #67ACE9",
"F. c #71ACE5",
"G. c #64B3E5",
"H. c #6CB3E3",
"J. c #64B3EB",
"K. c #6BB3EB",
"L. c #6BB9E7",
"P. c #73B4E3",
"I. c #74BAE4",
"U. c #7BBBE4",
"Y. c #74B4EA",
"T. c #74BBEB",
"R. c #7CBCEB",
"E. c #7AB6E5",
"W. c #69B8F5",
"Q. c #74BBF5",
"!. c #6AAFF2",
"~. c #77C7DC",
"^. c #7BC2E4",
"/. c #74C2ED",
"(. c #7BC3EC",
"). c #79C6E7",
"_. c #7BC4F4",
"`. c #74C4FB",
"'. c #7AC7F8",
"]. c #76CEEE",
"[. c #83BCDB",
"{. c #83B9D4",
"}. c #8DBCCB",
"|. c #83BDE4",
" X c #80BFF2",
".X c #88C4DA",
"XX c #92C6DB",
"oX c #83C2E4",
"OX c #8BC5E4",
"+X c #83CAE5",
"@X c #83C4EB",
"#X c #8BC6EC",
"$X c #84CBEC",
"%X c #8BCBEB",
"&X c #8BCBE3",
"*X c #93CBEC",
"=X c #94CBE4",
"-X c #8BD4E9",
";X c #93D3ED",
":X c #9AD4EB",
">X c #98D6E9",
",X c #82C5F3",
"<X c #83CBF3",
"1X c #8CCCF3",
"2X c #8BCDFC",
"3X c #86CBFA",
"4X c #93CDF4",
"5X c #93CCF7",
"6X c #8CD2F3",
"7X c #8DD3FC",
"8X c #88D7FB",
"9X c #94D3F4",
"0X c #9CDBF5",
"qX c #93D4FC",
"wX c #99D5FB",
"eX c #93DBFD",
"rX c #9CDBFD",
"tX c #99D5F5",
"yX c #A2DCFD",
"uX c #A8DBF5",
"iX c #AAD8E9",
"pX c #8DE6FC",
"aX c #9CE4FE",
"sX c #9CECFF",
"dX c #95E6F9",
"fX c #9CF4FE",
"gX c #9AF7FB",
"hX c #8EE3EB",
"jX c #A4E3FE",
"kX c #ABE4FE",
"lX c #A2ECFF",
"zX c #ACEBFF",
"xX c #A8E5F6",
"cX c #B5EBFF",
"vX c #BBEBFE",
"bX c #B6E7FB",
"nX c #A4F4FE",
"mX c #ACF5FF",
"MX c #ACFCFF",
"NX c #A6FBFF",
"BX c #B5F3FF",
"VX c #BBF4FF",
"CX c #B3FEFF",
"ZX c #BBFDFF",
"AX c #B6E6EA",
"SX c #BAE1DE",
"DX c #C5ECFA",
"FX c #C4F3FE",
"GX c #CBF5FD",
"HX c #C4FDFF",
"JX c #CBFCFF",
"KX c #CAF4F7",
"LX c #D3FDFF",
"PX c #DBFEFE",
"IX c #D6F7F4",
"UX c #E5FFFE",
/* pixels */
"UXUXLXLXLXVXJXHXHXkXzXjXVXjXcXw I ZX6XeXaXaXeXdX9XmXlXtXrXjXZXJ I VXtXmXZXBXmXsXlXaXzXBXmXxXJXl L JXVXZXkXjXZXHXVXHXVXFXLXPXPXUX",
"IXPXGX=Xc.G e.jXt.k V p.@XS |.n.%Xk.} i.b Z Z q.b.6Xv.p.} 0.&X&X*XOX^.k.aX+X>.s.G.2.$X.X&X0XjXOX{.kXy.H >.@Xx.e.w.9Xn.c.xXLXGXPX",
"LXuXyXM z ] $.a.( ( A.Q.s.3 u.] i.2.L._ ! #.J./.8X5.4.4.s.H.qX8.n.qXL.A.'. .` E o.L.(.<XsX<X9.} 9.v.x 6.'.A.v ] z 2.s.] #XuXuXLX",
"FX[.|.2 #.V.&.Y ! D.Q.O.R ! K.p i.I.` ) V.W.W.Q.o.O.O.N.K.Q.,Xx q.).6.B.A.6.) ` G.L./.aX'.b s.9...2.5.`.V.O.N.&.9 V.D.^ P.v.e.GX",
"kXj ..#.B.+.R ) J.Q.V.T ) 3.G.x >.z.1.3.Q.J.J.3.3.o.o.D.'.4.l.F ,.z.G.C.B.` ` /.L.s./.T.O.! I.{ { l./.C.) N.+.t V.W.O.) ! ..x.VX",
"rXh | B.) R +.V.!.%.R T O.4.s.x b.b.2.K.G.B._ #.` R K.Q.K.| 7XC >.'.6.`  . .T.L.6./.T.! +.K.6X{ Z T.1.T O.) 9 V.V.T ) 6 ! 2.c kX",
"*Xv.T.$.! R _ s.| v _ A.D.A.d.& h (.2XT.Y.S.s.i...,X2XY.$. X@X& p Q.'.L.d.I.P.2.T.H.a.a.Q._.,X1 z H.%.%.#.! 4.Q.K.#.a ' 2.>..XBX",
"e.e ] 3 3 & % # & * 2 0 p 4 z # # h e S =.S S j A } S 4 e e = # % $ 5 1 c h 5 5 * * 5 n ~ r * # # r ! a , u ] n 5 z x ,.>.@XI >X",
"kXyX9X6XrXzXaXo K zXyXjXjXyX4XwXyX9X1X#XrXjX0Xo g xXaX0XrXrXjXzXjXaX0XjXjXjXkX# g kXyXyXjXrXzXrXzXwX1XqXjXaXrX= g jX9XeX1X1X0XkX",
"9Xn.} b.eX+XBXI =X0XrXp...9.S D ] [ [ ] @XrXmXP y..Xe.8.oXtX9X;X%X+X;Xx.v.v.rXG .XJX:X8.0.8.8.I P w.} S m.&X0Xc.[.jXp.{ ( d.#XoX",
"a.| 2.3X/.>.n.8.x.n.] ~ v % < : 2 > 2 ^ ~ I.@XA x.A V c (. .5 h Z V v.I.~ v v.S m.tXc n n % & i = & $ c i 8.oXw.h.v.b 8 %.!.$.Y.",
"_ @.'.`.1.( U.S |.9.b _ 8 a v 3 a 8 Y a 2.p 3X{ k.F 2.2X~ | $.>.l.{ z ] _.~ v.S v.p.b  .h 9.eXaXlXeX5.s 2.c |.9.u.2.a 3.J.) K.rX",
"3.`.C.<.<.1.aXh E.n ~ , p 3 y l.3X' 8 8 y s /.Z i.z.T.: | 3X_.T. .2.v.* Z i.b.V p.>.p 3 k.mXCXZX8XB.`.o.8 s ..2.>.( ) 5.` G.sX].",
"Q.J.<.E C.'.H.4 R.n $ a s 6.<XCXsX,.y s 1., l.{ i.<X( b H.( { ,. ...} p.p 6.6XV d.( > { mXZXnX6.d s ` ` s ; s. .>.1.B.` 5.8X).x ",
"W.3.) <.`.3.L.z d.n v 2.sXnXMXnXNXdXF l.CXy I.x { ,X~ H.T.P.l.i...( [ S Z s <Xb a.s., b.CXmX<Xy Z pXpXpX) , s.]  .K.O.N.`.C.7.z.",
"3.) <.B.o.o.K.p d.n v zXnXdXhXgX-XhXsXMX6X< z.c ] ,X .>.>.i.x F { ] @XR.2.~ 3Xv a. .5 6XCXZX,.5 ].fXpXnX/., u.( | 4.V.`.J.3.5.` ",
") N.3.o.3.3.#.a Y.n C lXmXsX-XgX~.].fXNX).5 i.u { 3X2.d.p.9.x.:.q.$X..u...x (.p S. .5 eXmXCX,.f ].NXpXMX/.$ s.]  .4.K.Q.o.3.o.R ",
"N.o.T N.V.Y %.p H. .5 i.nXfXnXgXgXgX~.8XsXi 2.x ( 3Xu { 9.>.} k.n.x <XR.>.C ,X4 a.| & ^.CXMX6Xf Z pXNXeXC , { C  .T.A.K.`.T R +.",
"+.R +.Z.W +.Q.( L.( , a _ H.<XMXpXz.d Z I., 2Xp >._.] x 9.P.R.v.G 6XF q.x d.2Xv d.2.& ,.mXmXnXt.i s ` ' s : H.Z l.T.G.`.V.R O.W.",
"t +.W t W V.K.( l.( 0 7 9 8 y /.'.s s y u b I.z >.d.R.4 b u.u.v.1XF b.v.>.H.Y.~ ....x 5 l.CXMXCX8X].'.B.R y I.V b.<X_.B.6 N.W.) ",
"O.+.R W +.) T.x l.2.! %.9 Y 8 8 R s 8 p ] n 2Xh 9.>.C v.n { P.P.] u...F R.b Y. .:.b.u ..p d.eXlXmXnXL.!  .~ qXk +XaX>.8 O.J.o.a ",
"D., Y ^ ^  .qX1 p.p.-.v v > 2 , 3 , 2 ~ [ 7XwX1 9.S } c v.} z 4 ~ ] ] p.c ] d.n } 6XI.5 b $ 3 z u % : ~ n 2XwXj ^.%X5 ] a.! 8 _ ",
"Y...$...I.9X9Xk x.g.n.j.h.P.S.d.S.T.d.9.E.qX1X= G x.:.F q.<X<X7X1X1X$Xv.0.9.1Xz 9.$X,X2Xd.d.I.l.v.@Xv.v.1XjX#Xk c.BXw.h.f...u.qX",
"M d.[ 0.*.j = . = K B D *.N M 5 1 C S S 1 1 h O # :.F >.q.F V A h A q.x.q.9.0.O % } { V c S c c c G 0.8.M M j + # 0.|.m.M S } 1 ",
"=.kXyX#X%X@XwX%X#X4X4X5X4X4XyX+ A rX1X1XqXwXrXjX7X<X3X8X6X7XaX- k jX9X;X%XrXtX9X1X@XoX@XU.b.6X# = tX*X4X1X#X1X5X5X5X5X5XwX5XwXM ",
"yX*.0.D [ [ ..N m [ *.[ =.[ v.V n.0.G S u.d.u.s.$.s.i. .>.q.1X8.m.x.9.} 8.t.e.P F } 9.G 8.8.U.9.0.%Xw.S S 0.N ~ ~ X.-.[ [ D [.cX",
"m.- =.X.2 $ v 2.2.< > @.A.v * k j c } l.z % $.$.4.8 $ 1.l.z u h 9.h ..p.k # A 8.p.4 % [ 9.z < v h = n 2.v : v a.a.v % ~ a.c - >X",
"yXD z / K.^ S.b $.%.^ !.Y A.C c 9.v.S .. Xb S.| A.K._ T.z P.9.N E.E.n ~ E.c ^.{ ..Y.z P.4 P.a.] V l.b v A.8 K.( | Y.r Y.r p.H BX",
":Xw B 2 S.^  .~ | @.M.M.^ @.G.S { n ..z R.v a.#.A. .$.a.n ~ d.[ h.n u.4 H.~ a.a.A.@.^ A.~ X.P.u.] S ( , #.^ 2.( a.] | a.5 D .XBX",
"bXl B *.r % n z z > > &.&.! | n  .: $.-.n < n v b < & { [ N =.M v.* S u.n $ ^ ^ ! > $ n n [ N h b 5 v %.~ % u z h * % m D c.y.HX",
"DXiXr.K *.0.j =.f.f.d.-.-.$.d.b d.a.$.E.d.d.l.v.v.b.v.v.x.g.#X*.m.n.q.b.v.I.P.P.i.v.U.l.d.d.U.S u.Y.a.a.d.d.9.} 9.D 0.*.r.cXGXvX",
"AXDXPXbXuXcXtXr.0.j M N ] ] N   5 ..] S [ 8.} 8.P 8.8.0.w.g.j.  # x.x.8.t.F >.:.G :.G p.9.h } + % / -.[ N M 0.wX*XkXvXGXFXFXDXSX",
"PXLXFXLXJXkXbXcXkX*X%X|.rX7XwXe K yXtX*X%X%X;X$X$X~.%X9X:XkXuXw j yX*X;X%X&X-X-X-X;X&X;XyXyXkXj k jX1X1X9X9XtXZXVXcXcXFXGXLXKXPX",
"LXFXXXr.uXe.e e K G H G C ] n.9X*Xm.c.x.x.b.k.k.b.^.x.n..X0X0XtXOXn.w.x.q.b.b.b.b.~.b.n.e.n.OX0X+Xb.p.p.w.0.8.0.0.g.K |.iXvXPXPX",
"bXy.g.} d.5 < S...b ..p 5._ l.@Xk.V b.k.x h x (.I.] d.>.>.^.k.$X:.c I.d.p x b L.z.Z ,.x 9.p.p.@X:.i i.u.* * 5 u.d.z =.=.[.kXAXLX",
"VXc.m $...v Q.a.7 7 4./.G.`.H.l.).$X>.i.l.b 7X_.a ( s.3Xl.(.l.<Xz.<X . .T.a '.'.! _ ` '.l.(.(.l.z.).( 2.l.3 Y.T.0 ! _ R.U.OXXXVX",
"uXj ~ | $.Y.;.q 7 @.Q.A.Q.4.b 9.b.^.:.,.6.8XG.3 s L.8XT.<Xu.C l.I.s.Z 5.1.'.K.s a 5.'.L./.z.( ).z.,.' s.2.Q.A.7 7 ^ `.Y.Y.p.e.VX",
"*X= ..a.a.^ 7 q 7 > ^ 4.^ , b I.l.i :.l.T. .y 8 p $ s.I.C u h 6Xi.x :.I.I.2.8 p p $ s.l.x 5 * ).z.C ..s.s.~ : , 7 > 9 $.~ * = VX",
"*Xw...2.a.| a.-.a.a.4.#.%.K.T.] I.p.p.d.I.h.R.E.E.P.E.d.@X^.^.q.b.+Xx.k.x.b.U.U.v.n.v.v.q.k.b.V l.@Xp.d...d.h.v.d.u.d.a.d.0.{.VX",
"H x.} S c c h M m c b v ~ v n   & q.G [ *.x.g.j.0.g.g.g.w.8.A   # 8.w.^..Xc.r.y.K G 8.G G F c O % } f.v.9.M D 8.8.A S S M 8.y.cX",
"uXxXxX>X=X:XXX. l :X*X4X4X9XtXyX#X6X1X0X:X=XXXX w =X=X>X&X>X>X0X;X%XOX:X:X=X:Xo - *X*X4XwXwX1X1X1X#X9XwXyX*X:Xo - >X0X9XtXn..XBX",
"kXm.c.m.zXuXHXL =XFXtXoXm.g.j.g.h.p.p.n.:X>XHXU XXxX.X.X&XxXkXVXzXzXzX[.[.{.VXU =XcXyX1Xv.P.S.a.u.l.I.d.%XOXcXy.y.HXjXmXw.[ n.%X",
"I.C :.I.aX6X;XI m.wX..0 v @ : % > q 2 | 4 v.wX9.x.G j k oXm.N S S ] U.p.= j c.e.[.kXu.4 v % > > > $ $ ~ z p.oXI t.%X1X>.( _.{ 2.",
"4.! /.pX'.T.U.8.p.u.0 @.a a 0 v ! 9 7 0 $.b ,X .v.9.S wX[ 5 z ..T.H.c d.7Xh U.} v.wXb | a 8 9 9 6 s 9 9 | 0 E.} q.eX2.! !.%.%.Q.",
"o.C.8X'.J. .l.9.U.X.^ 7 8 p v 3XK.s s 8 b b R. .Y.u.2Xn u.aXeX_. . .s.< u.d.1X[ R.I.C p 8 8 R Q.J.R 6 > Y a a. .L.G.o.!.+.+.W.W.",
"C.8X'.G.B.a d.] |.| 7 8 u z.jXZX8Xy s y | p P.n s.qX..% { i.>.i.u.( s. .n R.wX{ I...& 5 u i.pXCX'., d R @.> $.2.s.A.%.N.O.W.V.T ",
"/./.6.7.R ` ,Xc v...3 2.eXdXHXmXmX6XV ).lX* z.Z i.eXu (.$Xq.t.8.S F S } C ] 7Xn I.i.& P dXdXnXnXpX~.Z '.eX$ L.2.2.1.o.) N.B.E o.",
"5.L.7.s 1.G.l.h v.c { mXmXhXhXCXCXCXlXZX+X* z.p i.I.>.U.:.w.j H P S q.U.2.c 2XC l.{ V nXmXhXhXgXgXfXpXfXz.$ I.2...6.1.B.B.E ) G.",
"J.5.R ) J.#.,Xz h.z { mXnXhXdXCXnXCXZXCXx.& I.x 2.R.i.p.p.8.0.8.:.).l.] ] v 7X{ i.:.Z NXfXpXhXgXgXhXfXfX` $ L.( ( /.1.B.o.+.+.+.",
"W.R T B.O._ S.z Y.n u 8XnXnXCXnXCXCX+XCXaX* i.z d.,Xb ..p.p.9.q.$X:.d.T.s...7Xx z.{ y 8XfXpXgXpXfXfX).fX8X$ 6.'  .G.B.C.O.) ^ Y ",
"T +.Q O.N.R K.( Y.#.> ! G.).nXZXnXL.p s./.: _.b s.,X] z >.i.I.).V U.l.u.z i.7XS p.,.& Z 6.'.pXCX'.7.s <.`.; 5.] a.Q.3.+.Z.T R W.",
"o.V.N.Z.T o.T.( H._ ! , 6 s Z eXL.R 8 , ' a A.' L.2.l.p ] i.i.i.(.{ i.R.u.i.I.} q.>.v , 6 s #.'.J.6 ; d s 8 i...$.Y.O.N.Q R G.J.",
"!.N.N.T o.` 7XV k.{ _ ^ 9 7 0 v 0 9 9 a #.s 8Xb 7. .x l.u C I.P.C v.P.n R.z R.9.p.u.a %.9 6 Y ! R 9 9 Y _ 0 v.*.E.P.4.T R W.5.1.",
"!.%.9 ! 1.I.lXH x.$X( b ! > 2 : 2 > : ~ b L.eXp 2.{ F C U.9.1 & S S u.S.~ ] @X9...E.| 0 ! : > > 7 > > ^ p ..#XB j.rXC ~ G.1.b '.",
"2X[ d.u.U.wXjXk [.n.U.l.[ u.u.f.p.w.9.w.1XyXyXc v.h.D [ :.$X1X$X^.6XU...[ { 1X[ 9.@X,XE.u.v.m.p.p.v.u.] R.wXtXe.{.:XG v.qXd.9.wX",
"r.8.:.G n.n.j . w *.k A S h m D e.H e.8.t.w.e.+ e v.0.w.0.9.8.w.q.G >.d.d.u.9.  # 9.S S n.A I I I H 8.8.*.0.*.X - y.[.g.S A g.|.",
"[.=X%X9X@X|.#X#X|.#XqX<X@XU.%XX w =X:XOX[.n.1X6X1X@XoX#X1X#XwX- k +X^.$X$X<X$X$X;Xn.;X+X&X=X>Xo o :XOX@X@X@X*X*XOXOX#XoX#X4XyX=X",
"HX{.*.9.p.v.U.*.0.E.R.i.P.v.4XM |.kXc.w.9.:.9.9.p.9.p.[ 0.=.5Xr.oX%X0.q.U.v.q.t.k.w.^.v.x.t.tXy.y.kXU.p.=.[ } 0.[ [ S S *.r.uXPX",
"=Xk [ ..3 % z =.9.& O ( 5.7 4 n < z ] u.u # z S [ 5 % n f.4 z ] h.h ..u.5 % i >.:.1 O n ..m m [ e e [ 2.p % 4 | ..0 $ ~ g.w L PX",
"VXI } u.S.r ,XN 9.d._ !.^ D.( b #.V.@.4.K.b 2X] ..I.h R.[ E.] b v.|...$.S.4 I.{ >.T.v F.^ Y.X.~ X.F.| _ H.b H. .( a.! R.D r.}.PX",
"GXiXOX* S.~ h.N d.| #.#.!  .l.n @.@.&.7 Q. .s. .l.{ S p.n } h.U.j.N =.< P.n u...G.#.&.M.^ &.F.;./ / ^ 2 a.n u.N ..a.~ d.k r.KXLX",
"PXKXFXOXH * m N N # < #.( ( ..e ~ : | s.( $ _ ( x % 1 } G *.r.vXuXw *.f.X.< b b v 2 q @.@./ / m / r | 2...& M k e #Xe e y.DXLXPX",
"IXSXKXGXXX{.U =Xy.H G } } S f.m p.G 0.[ [ >...u.h.9.} H I L r.FXJX}.l I =.f.9.} } >.2.u.v.} w.K } d...9.} w.J L U FX[.U GXLXKXUX",
"PXPXLXAXLXJXGXJXJX:Xr.e.wX4Xj.+ A m.x.x.p.} u.d.qXVXkXcXuXHXJXiXAXJXLXFXJXzXx.6Xl.q.d.p.x.n..X- w %Xv.jX%XkXuXvXGXGXJXLXFXGXPXUX"
};
